(QtPlasmaC ROTARY — CamForge · post QtPlasmaC-nativo turnkey)
(tubo tondo Ø50 mm · lunghezza 88.4169 mm · perimetro 157.0796 mm)
(X = asse tubo mm · A = rotazione gradi · torcia a standoff fisso)
(feed superficie 6600 mm/min via G93 inverse-time · contorni 1)
(#<keep-z-motion> salta il probe sul tubo · THC off · pierce/arco/materiale gestiti da QtPlasmaC)
G21 G40 G49 G64 P0.1 G80 G90 G92.1 G97
#<keep-z-motion>=1
M190 P2
M66 P3 L3 Q1
G93
(contorno 1/1 coping Ø50→Ø60 @90°)
G0 X24.4169 A0
M03 $0 S1
G1 X28.4169 A0 F1650
G1 X28.4042 A2 F7562.2434
G1 X28.3661 A4 F7555.8676
G1 X28.3028 A6 F7543.2237
G1 X28.2144 A8 F7524.5231
G1 X28.1011 A10 F7500.0754
G1 X27.9632 A12 F7470.2784
G1 X27.8009 A14 F7435.6073
G1 X27.6147 A16 F7396.602
G1 X27.4051 A18 F7353.8534
G1 X27.1726 A20 F7307.9902
G1 X26.9176 A22 F7259.6661
G1 X26.641 A24 F7209.5479
G1 X26.3435 A26 F7158.3055
G1 X26.0257 A28 F7106.6033
G1 X25.6887 A30 F7055.0938
G1 X25.3332 A32 F7004.4125
G1 X24.9605 A34 F6955.1755
G1 X24.5716 A36 F6907.978
G1 X24.1676 A38 F6863.3941
G1 X23.75 A40 F6821.9787
G1 X23.32 A42 F6784.2692
G1 X22.8792 A44 F6750.7886
G1 X22.4292 A46 F6722.048
G1 X21.9718 A48 F6698.5495
G1 X21.5088 A50 F6680.7885
G1 X21.0421 A52 F6669.2538
G1 X20.5739 A54 F6664.4266
G1 X20.1064 A56 F6666.7758
G1 X19.6421 A58 F6676.7489
G1 X19.1834 A60 F6694.7574
G1 X18.7332 A62 F6721.1536
G1 X18.2941 A64 F6756.1974
G1 X17.8693 A66 F6800.0106
G1 X17.4617 A68 F6852.516
G1 X17.0746 A70 F6913.3608
G1 X16.7112 A72 F6981.8256
G1 X16.3747 A74 F7056.7238
G1 X16.0685 A76 F7136.3047
G1 X15.7955 A78 F7218.18
G1 X15.5588 A80 F7299.3042
G1 X15.3611 A82 F7376.0453
G1 X15.2046 A84 F7444.3781
G1 X15.0914 A86 F7500.2139
G1 X15.0229 A88 F7539.8447
G1 X15 A90 F7560.432
G1 X15.0229 A92 F7560.432
G1 X15.0914 A94 F7539.8447
G1 X15.2046 A96 F7500.2139
G1 X15.3611 A98 F7444.3781
G1 X15.5588 A100 F7376.0453
G1 X15.7955 A102 F7299.3042
G1 X16.0685 A104 F7218.18
G1 X16.3747 A106 F7136.3047
G1 X16.7112 A108 F7056.7238
G1 X17.0746 A110 F6981.8256
G1 X17.4617 A112 F6913.3608
G1 X17.8693 A114 F6852.516
G1 X18.2941 A116 F6800.0106
G1 X18.7332 A118 F6756.1974
G1 X19.1834 A120 F6721.1536
G1 X19.6421 A122 F6694.7574
G1 X20.1064 A124 F6676.7489
G1 X20.5739 A126 F6666.7758
G1 X21.0421 A128 F6664.4266
G1 X21.5088 A130 F6669.2538
G1 X21.9718 A132 F6680.7885
G1 X22.4292 A134 F6698.5495
G1 X22.8792 A136 F6722.048
G1 X23.32 A138 F6750.7886
G1 X23.75 A140 F6784.2692
G1 X24.1676 A142 F6821.9787
G1 X24.5716 A144 F6863.3941
G1 X24.9605 A146 F6907.978
G1 X25.3332 A148 F6955.1755
G1 X25.6887 A150 F7004.4125
G1 X26.0257 A152 F7055.0938
G1 X26.3435 A154 F7106.6033
G1 X26.641 A156 F7158.3055
G1 X26.9176 A158 F7209.5479
G1 X27.1726 A160 F7259.6661
G1 X27.4051 A162 F7307.9902
G1 X27.6147 A164 F7353.8534
G1 X27.8009 A166 F7396.602
G1 X27.9632 A168 F7435.6073
G1 X28.1011 A170 F7470.2784
G1 X28.2144 A172 F7500.0754
G1 X28.3028 A174 F7524.5231
G1 X28.3661 A176 F7543.2237
G1 X28.4042 A178 F7555.8676
G1 X28.4169 A180 F7562.2434
G1 X28.4042 A182 F7562.2434
G1 X28.3661 A184 F7555.8676
G1 X28.3028 A186 F7543.2237
G1 X28.2144 A188 F7524.5231
G1 X28.1011 A190 F7500.0754
G1 X27.9632 A192 F7470.2784
G1 X27.8009 A194 F7435.6073
G1 X27.6147 A196 F7396.602
G1 X27.4051 A198 F7353.8534
G1 X27.1726 A200 F7307.9902
G1 X26.9176 A202 F7259.6661
G1 X26.641 A204 F7209.5479
G1 X26.3435 A206 F7158.3055
G1 X26.0257 A208 F7106.6033
G1 X25.6887 A210 F7055.0938
G1 X25.3332 A212 F7004.4125
G1 X24.9605 A214 F6955.1755
G1 X24.5716 A216 F6907.978
G1 X24.1676 A218 F6863.3941
G1 X23.75 A220 F6821.9787
G1 X23.32 A222 F6784.2692
G1 X22.8792 A224 F6750.7886
G1 X22.4292 A226 F6722.048
G1 X21.9718 A228 F6698.5495
G1 X21.5088 A230 F6680.7885
G1 X21.0421 A232 F6669.2538
G1 X20.5739 A234 F6664.4266
G1 X20.1064 A236 F6666.7758
G1 X19.6421 A238 F6676.7489
G1 X19.1834 A240 F6694.7574
G1 X18.7332 A242 F6721.1536
G1 X18.2941 A244 F6756.1974
G1 X17.8693 A246 F6800.0106
G1 X17.4617 A248 F6852.516
G1 X17.0746 A250 F6913.3608
G1 X16.7112 A252 F6981.8256
G1 X16.3747 A254 F7056.7238
G1 X16.0685 A256 F7136.3047
G1 X15.7955 A258 F7218.18
G1 X15.5588 A260 F7299.3042
G1 X15.3611 A262 F7376.0453
G1 X15.2046 A264 F7444.3781
G1 X15.0914 A266 F7500.2139
G1 X15.0229 A268 F7539.8447
G1 X15 A270 F7560.432
G1 X15.0229 A272 F7560.432
G1 X15.0914 A274 F7539.8447
G1 X15.2046 A276 F7500.2139
G1 X15.3611 A278 F7444.3781
G1 X15.5588 A280 F7376.0453
G1 X15.7955 A282 F7299.3042
G1 X16.0685 A284 F7218.18
G1 X16.3747 A286 F7136.3047
G1 X16.7112 A288 F7056.7238
G1 X17.0746 A290 F6981.8256
G1 X17.4617 A292 F6913.3608
G1 X17.8693 A294 F6852.516
G1 X18.2941 A296 F6800.0106
G1 X18.7332 A298 F6756.1974
G1 X19.1834 A300 F6721.1536
G1 X19.6421 A302 F6694.7574
G1 X20.1064 A304 F6676.7489
G1 X20.5739 A306 F6666.7758
G1 X21.0421 A308 F6664.4266
G1 X21.5088 A310 F6669.2538
G1 X21.9718 A312 F6680.7885
G1 X22.4292 A314 F6698.5495
G1 X22.8792 A316 F6722.048
G1 X23.32 A318 F6750.7886
G1 X23.75 A320 F6784.2692
G1 X24.1676 A322 F6821.9787
G1 X24.5716 A324 F6863.3941
G1 X24.9605 A326 F6907.978
G1 X25.3332 A328 F6955.1755
G1 X25.6887 A330 F7004.4125
G1 X26.0257 A332 F7055.0938
G1 X26.3435 A334 F7106.6033
G1 X26.641 A336 F7158.3055
G1 X26.9176 A338 F7209.5479
G1 X27.1726 A340 F7259.6661
G1 X27.4051 A342 F7307.9902
G1 X27.6147 A344 F7353.8534
G1 X27.8009 A346 F7396.602
G1 X27.9632 A348 F7435.6073
G1 X28.1011 A350 F7470.2784
G1 X28.2144 A352 F7500.0754
G1 X28.3028 A354 F7524.5231
G1 X28.3661 A356 F7543.2237
G1 X28.4042 A358 F7555.8676
G1 X28.4169 A360 F7562.2434
M05 $0
M05 $0
G94
G0 X0 A360
M2
