(QtPlasmaC ROTARY — CamForge · post QtPlasmaC-nativo turnkey)
(tubo tondo Ø50.8 mm · lunghezza 300 mm · perimetro 159.5929 mm)
(X = asse tubo mm · A = rotazione gradi · torcia a standoff fisso)
(feed superficie 6600 mm/min via G93 inverse-time · contorni 7)
(#<keep-z-motion> salta il probe sul tubo · THC off · pierce/arco/materiale gestiti da QtPlasmaC)
G21 G40 G49 G64 P0.1 G80 G90 G92.1 G97
#<keep-z-motion>=1
M190 P2
M66 P3 L3 Q1
G93
(contorno 1/7 foro-top Ø10 @u60)
G0 X56.5412 A-3.2549
M03 $0 S1
G1 X56.6861 A-4.4131 F12370.6273
G1 X56.9097 A-5.5058 F12370.6273
G1 X57.2062 A-6.5063 F12370.6273
G1 X57.5685 A-7.3898 F12370.6273
G1 X57.9876 A-8.1345 F12370.6273
G1 X58.4532 A-8.7222 F12370.6273
G1 X58.9538 A-9.1384 F12370.6273
G1 X59.4771 A-9.3728 F12370.6273
G1 X60.0102 A-9.4197 F12370.6273
G1 X60.54 A-9.2779 F12370.6273
G1 X61.072 A-9.0387 F12166.8547
G1 X61.588 A-8.6417 F12105.8741
G1 X62.075 A-8.1026 F12166.2345
G1 X62.528 A-7.4191 F12110.2344
G1 X62.934 A-6.6183 F12237.7391
G1 X63.289 A-5.7025 F12237.7391
G1 X63.592 A-4.6807 F12110.2344
G1 X63.831 A-3.5821 F12166.2345
G1 X64.007 A-2.4182 F12105.8741
G1 X64.113 A-1.2181 F12166.8547
G1 X64.148 A0 F12196.6303
G1 X64.113 A1.2181 F12196.6303
G1 X64.007 A2.4182 F12166.8547
G1 X63.831 A3.5821 F12105.8741
G1 X63.592 A4.6807 F12166.2345
G1 X63.289 A5.7025 F12110.2344
G1 X62.934 A6.6183 F12237.7391
G1 X62.528 A7.4191 F12237.7391
G1 X62.075 A8.1026 F12110.2344
G1 X61.588 A8.6417 F12166.2345
G1 X61.072 A9.0387 F12105.8741
G1 X60.54 A9.2779 F12166.8547
G1 X60 A9.3568 F12196.6303
G1 X59.46 A9.2779 F12196.6303
G1 X58.928 A9.0387 F12166.8547
G1 X58.412 A8.6417 F12105.8741
G1 X57.925 A8.1026 F12166.2345
G1 X57.472 A7.4191 F12110.2344
G1 X57.066 A6.6183 F12237.7391
G1 X56.711 A5.7025 F12237.7391
G1 X56.408 A4.6807 F12110.2344
G1 X56.169 A3.5821 F12166.2345
G1 X55.993 A2.4182 F12105.8741
G1 X55.887 A1.2181 F12166.8547
G1 X55.852 A0 F12196.6303
G1 X55.887 A-1.2181 F12196.6303
G1 X55.993 A-2.4182 F12166.8547
G1 X56.169 A-3.5821 F12105.8741
G1 X56.408 A-4.6807 F12166.2345
G1 X56.711 A-5.7025 F12110.2344
G1 X57.066 A-6.6183 F12237.7391
G1 X57.472 A-7.4191 F12237.7391
G1 X57.925 A-8.1026 F12110.2344
G1 X58.412 A-8.6417 F12166.2345
G1 X58.928 A-9.0387 F12105.8741
G1 X59.46 A-9.2779 F12166.8547
G1 X60 A-9.3568 F12196.6303
G1 X60.54 A-9.2779 F12196.6303
M05 $0
(contorno 2/7 foro-top Ø10 @u150)
G0 X146.5412 A-3.2549
M03 $0 S1
G1 X146.6861 A-4.4131 F12370.6273
G1 X146.9097 A-5.5058 F12370.6273
G1 X147.2062 A-6.5063 F12370.6273
G1 X147.5685 A-7.3898 F12370.6273
G1 X147.9876 A-8.1345 F12370.6273
G1 X148.4532 A-8.7222 F12370.6273
G1 X148.9538 A-9.1384 F12370.6273
G1 X149.4771 A-9.3728 F12370.6273
G1 X150.0102 A-9.4197 F12370.6273
G1 X150.54 A-9.2779 F12370.6273
G1 X151.072 A-9.0387 F12166.8547
G1 X151.588 A-8.6417 F12105.8741
G1 X152.075 A-8.1026 F12166.2345
G1 X152.528 A-7.4191 F12110.2344
G1 X152.934 A-6.6183 F12237.7391
G1 X153.289 A-5.7025 F12237.7391
G1 X153.592 A-4.6807 F12110.2344
G1 X153.831 A-3.5821 F12166.2345
G1 X154.007 A-2.4182 F12105.8741
G1 X154.113 A-1.2181 F12166.8547
G1 X154.148 A0 F12196.6303
G1 X154.113 A1.2181 F12196.6303
G1 X154.007 A2.4182 F12166.8547
G1 X153.831 A3.5821 F12105.8741
G1 X153.592 A4.6807 F12166.2345
G1 X153.289 A5.7025 F12110.2344
G1 X152.934 A6.6183 F12237.7391
G1 X152.528 A7.4191 F12237.7391
G1 X152.075 A8.1026 F12110.2344
G1 X151.588 A8.6417 F12166.2345
G1 X151.072 A9.0387 F12105.8741
G1 X150.54 A9.2779 F12166.8547
G1 X150 A9.3568 F12196.6303
G1 X149.46 A9.2779 F12196.6303
G1 X148.928 A9.0387 F12166.8547
G1 X148.412 A8.6417 F12105.8741
G1 X147.925 A8.1026 F12166.2345
G1 X147.472 A7.4191 F12110.2344
G1 X147.066 A6.6183 F12237.7391
G1 X146.711 A5.7025 F12237.7391
G1 X146.408 A4.6807 F12110.2344
G1 X146.169 A3.5821 F12166.2345
G1 X145.993 A2.4182 F12105.8741
G1 X145.887 A1.2181 F12166.8547
G1 X145.852 A0 F12196.6303
G1 X145.887 A-1.2181 F12196.6303
G1 X145.993 A-2.4182 F12166.8547
G1 X146.169 A-3.5821 F12105.8741
G1 X146.408 A-4.6807 F12166.2345
G1 X146.711 A-5.7025 F12110.2344
G1 X147.066 A-6.6183 F12237.7391
G1 X147.472 A-7.4191 F12237.7391
G1 X147.925 A-8.1026 F12110.2344
G1 X148.412 A-8.6417 F12166.2345
G1 X148.928 A-9.0387 F12105.8741
G1 X149.46 A-9.2779 F12166.8547
G1 X150 A-9.3568 F12196.6303
G1 X150.54 A-9.2779 F12196.6303
M05 $0
(contorno 3/7 foro-top Ø10 @u240)
G0 X236.5412 A-3.2549
M03 $0 S1
G1 X236.6861 A-4.4131 F12370.6273
G1 X236.9097 A-5.5058 F12370.6273
G1 X237.2062 A-6.5063 F12370.6273
G1 X237.5685 A-7.3898 F12370.6273
G1 X237.9876 A-8.1345 F12370.6273
G1 X238.4532 A-8.7222 F12370.6273
G1 X238.9538 A-9.1384 F12370.6273
G1 X239.4771 A-9.3728 F12370.6273
G1 X240.0102 A-9.4197 F12370.6273
G1 X240.54 A-9.2779 F12370.6273
G1 X241.072 A-9.0387 F12166.8547
G1 X241.588 A-8.6417 F12105.8741
G1 X242.075 A-8.1026 F12166.2345
G1 X242.528 A-7.4191 F12110.2344
G1 X242.934 A-6.6183 F12237.7391
G1 X243.289 A-5.7025 F12237.7391
G1 X243.592 A-4.6807 F12110.2344
G1 X243.831 A-3.5821 F12166.2345
G1 X244.007 A-2.4182 F12105.8741
G1 X244.113 A-1.2181 F12166.8547
G1 X244.148 A0 F12196.6303
G1 X244.113 A1.2181 F12196.6303
G1 X244.007 A2.4182 F12166.8547
G1 X243.831 A3.5821 F12105.8741
G1 X243.592 A4.6807 F12166.2345
G1 X243.289 A5.7025 F12110.2344
G1 X242.934 A6.6183 F12237.7391
G1 X242.528 A7.4191 F12237.7391
G1 X242.075 A8.1026 F12110.2344
G1 X241.588 A8.6417 F12166.2345
G1 X241.072 A9.0387 F12105.8741
G1 X240.54 A9.2779 F12166.8547
G1 X240 A9.3568 F12196.6303
G1 X239.46 A9.2779 F12196.6303
G1 X238.928 A9.0387 F12166.8547
G1 X238.412 A8.6417 F12105.8741
G1 X237.925 A8.1026 F12166.2345
G1 X237.472 A7.4191 F12110.2344
G1 X237.066 A6.6183 F12237.7391
G1 X236.711 A5.7025 F12237.7391
G1 X236.408 A4.6807 F12110.2344
G1 X236.169 A3.5821 F12166.2345
G1 X235.993 A2.4182 F12105.8741
G1 X235.887 A1.2181 F12166.8547
G1 X235.852 A0 F12196.6303
G1 X235.887 A-1.2181 F12196.6303
G1 X235.993 A-2.4182 F12166.8547
G1 X236.169 A-3.5821 F12105.8741
G1 X236.408 A-4.6807 F12166.2345
G1 X236.711 A-5.7025 F12110.2344
G1 X237.066 A-6.6183 F12237.7391
G1 X237.472 A-7.4191 F12237.7391
G1 X237.925 A-8.1026 F12110.2344
G1 X238.412 A-8.6417 F12166.2345
G1 X238.928 A-9.0387 F12105.8741
G1 X239.46 A-9.2779 F12166.8547
G1 X240 A-9.3568 F12196.6303
G1 X240.54 A-9.2779 F12196.6303
M05 $0
(contorno 4/7 foro-side Ø10 @u60)
G0 X56.5353 A86.7349
M03 $0 S1
G1 X56.6808 A85.577 F12370.6273
G1 X56.9049 A84.4848 F12370.6273
G1 X57.2019 A83.4851 F12370.6273
G1 X57.5646 A82.6025 F12370.6273
G1 X57.984 A81.8587 F12370.6273
G1 X58.4499 A81.2722 F12370.6273
G1 X58.9507 A80.8572 F12370.6273
G1 X59.4741 A80.6241 F12370.6273
G1 X60.0073 A80.5785 F12370.6273
G1 X60.537 A80.7216 F12370.6273
G1 X61.076 A80.9653 F12006.2528
G1 X61.586 A81.3555 F12255.2796
G1 X62.075 A81.8969 F12116.2937
G1 X62.524 A82.5736 F12222.2013
G1 X62.933 A83.3834 F12127.723
G1 X63.292 A84.306 F12127.723
G1 X63.592 A85.3188 F12222.2013
G1 X63.831 A86.4174 F12166.2345
G1 X64.007 A87.5813 F12105.8741
G1 X64.113 A88.7836 F12144.8968
G1 X64.148 A89.9995 F12219.1636
G1 X64.113 A91.2176 F12196.6303
G1 X64.007 A92.4176 F12166.8547
G1 X63.83 A93.5906 F12015.3219
G1 X63.594 A94.6734 F12339.2295
G1 X63.289 A95.702 F12030.6426
G1 X62.934 A96.6178 F12237.7391
G1 X62.528 A97.4186 F12237.7391
G1 X62.072 A98.1066 F12030.6426
G1 X61.589 A98.6435 F12257.3083
G1 X61.075 A99.0382 F12155.2733
G1 X60.54 A99.2773 F12101.2134
G1 X60 A99.3563 F12196.6303
G1 X59.46 A99.2773 F12196.6303
G1 X58.925 A99.0382 F12101.2134
G1 X58.411 A98.6435 F12155.2733
G1 X57.928 A98.1066 F12257.3083
G1 X57.472 A97.4186 F12030.6426
G1 X57.066 A96.6178 F12237.7391
G1 X56.711 A95.702 F12237.7391
G1 X56.406 A94.6734 F12030.6426
G1 X56.17 A93.5906 F12339.2295
G1 X55.993 A92.4176 F12015.3219
G1 X55.887 A91.2176 F12166.8547
G1 X55.852 A89.9995 F12196.6303
G1 X55.887 A88.7836 F12219.1636
G1 X55.993 A87.5813 F12144.8968
G1 X56.169 A86.4174 F12105.8741
G1 X56.408 A85.3188 F12166.2345
G1 X56.708 A84.306 F12222.2013
G1 X57.067 A83.3834 F12127.723
G1 X57.476 A82.5736 F12127.723
G1 X57.925 A81.8969 F12222.2013
G1 X58.414 A81.3555 F12116.2937
G1 X58.924 A80.9653 F12255.2796
G1 X59.463 A80.7216 F12006.2528
G1 X60 A80.6427 F12264.4805
G1 X60.537 A80.7216 F12264.4805
M05 $0
(contorno 5/7 foro-side Ø10 @u150)
G0 X146.5353 A86.7349
M03 $0 S1
G1 X146.6808 A85.577 F12370.6273
G1 X146.9049 A84.4848 F12370.6273
G1 X147.2019 A83.4851 F12370.6273
G1 X147.5646 A82.6025 F12370.6273
G1 X147.984 A81.8587 F12370.6273
G1 X148.4499 A81.2722 F12370.6273
G1 X148.9507 A80.8572 F12370.6273
G1 X149.4741 A80.6241 F12370.6273
G1 X150.0073 A80.5785 F12370.6273
G1 X150.537 A80.7216 F12370.6273
G1 X151.076 A80.9653 F12006.2528
G1 X151.586 A81.3555 F12255.2796
G1 X152.075 A81.8969 F12116.2937
G1 X152.524 A82.5736 F12222.2013
G1 X152.933 A83.3834 F12127.723
G1 X153.292 A84.306 F12127.723
G1 X153.592 A85.3188 F12222.2013
G1 X153.831 A86.4174 F12166.2345
G1 X154.007 A87.5813 F12105.8741
G1 X154.113 A88.7836 F12144.8968
G1 X154.148 A89.9995 F12219.1636
G1 X154.113 A91.2176 F12196.6303
G1 X154.007 A92.4176 F12166.8547
G1 X153.83 A93.5906 F12015.3219
G1 X153.594 A94.6734 F12339.2295
G1 X153.289 A95.702 F12030.6426
G1 X152.934 A96.6178 F12237.7391
G1 X152.528 A97.4186 F12237.7391
G1 X152.072 A98.1066 F12030.6426
G1 X151.589 A98.6435 F12257.3083
G1 X151.075 A99.0382 F12155.2733
G1 X150.54 A99.2773 F12101.2134
G1 X150 A99.3563 F12196.6303
G1 X149.46 A99.2773 F12196.6303
G1 X148.925 A99.0382 F12101.2134
G1 X148.411 A98.6435 F12155.2733
G1 X147.928 A98.1066 F12257.3083
G1 X147.472 A97.4186 F12030.6426
G1 X147.066 A96.6178 F12237.7391
G1 X146.711 A95.702 F12237.7391
G1 X146.406 A94.6734 F12030.6426
G1 X146.17 A93.5906 F12339.2295
G1 X145.993 A92.4176 F12015.3219
G1 X145.887 A91.2176 F12166.8547
G1 X145.852 A89.9995 F12196.6303
G1 X145.887 A88.7836 F12219.1636
G1 X145.993 A87.5813 F12144.8968
G1 X146.169 A86.4174 F12105.8741
G1 X146.408 A85.3188 F12166.2345
G1 X146.708 A84.306 F12222.2013
G1 X147.067 A83.3834 F12127.723
G1 X147.476 A82.5736 F12127.723
G1 X147.925 A81.8969 F12222.2013
G1 X148.414 A81.3555 F12116.2937
G1 X148.924 A80.9653 F12255.2796
G1 X149.463 A80.7216 F12006.2528
G1 X150 A80.6427 F12264.4805
G1 X150.537 A80.7216 F12264.4805
M05 $0
(contorno 6/7 foro-side Ø10 @u240)
G0 X236.5353 A86.7349
M03 $0 S1
G1 X236.6808 A85.577 F12370.6273
G1 X236.9049 A84.4848 F12370.6273
G1 X237.2019 A83.4851 F12370.6273
G1 X237.5646 A82.6025 F12370.6273
G1 X237.984 A81.8587 F12370.6273
G1 X238.4499 A81.2722 F12370.6273
G1 X238.9507 A80.8572 F12370.6273
G1 X239.4741 A80.6241 F12370.6273
G1 X240.0073 A80.5785 F12370.6273
G1 X240.537 A80.7216 F12370.6273
G1 X241.076 A80.9653 F12006.2528
G1 X241.586 A81.3555 F12255.2796
G1 X242.075 A81.8969 F12116.2937
G1 X242.524 A82.5736 F12222.2013
G1 X242.933 A83.3834 F12127.723
G1 X243.292 A84.306 F12127.723
G1 X243.592 A85.3188 F12222.2013
G1 X243.831 A86.4174 F12166.2345
G1 X244.007 A87.5813 F12105.8741
G1 X244.113 A88.7836 F12144.8968
G1 X244.148 A89.9995 F12219.1636
G1 X244.113 A91.2176 F12196.6303
G1 X244.007 A92.4176 F12166.8547
G1 X243.83 A93.5906 F12015.3219
G1 X243.594 A94.6734 F12339.2295
G1 X243.289 A95.702 F12030.6426
G1 X242.934 A96.6178 F12237.7391
G1 X242.528 A97.4186 F12237.7391
G1 X242.072 A98.1066 F12030.6426
G1 X241.589 A98.6435 F12257.3083
G1 X241.075 A99.0382 F12155.2733
G1 X240.54 A99.2773 F12101.2134
G1 X240 A99.3563 F12196.6303
G1 X239.46 A99.2773 F12196.6303
G1 X238.925 A99.0382 F12101.2134
G1 X238.411 A98.6435 F12155.2733
G1 X237.928 A98.1066 F12257.3083
G1 X237.472 A97.4186 F12030.6426
G1 X237.066 A96.6178 F12237.7391
G1 X236.711 A95.702 F12237.7391
G1 X236.406 A94.6734 F12030.6426
G1 X236.17 A93.5906 F12339.2295
G1 X235.993 A92.4176 F12015.3219
G1 X235.887 A91.2176 F12166.8547
G1 X235.852 A89.9995 F12196.6303
G1 X235.887 A88.7836 F12219.1636
G1 X235.993 A87.5813 F12144.8968
G1 X236.169 A86.4174 F12105.8741
G1 X236.408 A85.3188 F12166.2345
G1 X236.708 A84.306 F12222.2013
G1 X237.067 A83.3834 F12127.723
G1 X237.476 A82.5736 F12127.723
G1 X237.925 A81.8969 F12222.2013
G1 X238.414 A81.3555 F12116.2937
G1 X238.924 A80.9653 F12255.2796
G1 X239.463 A80.7216 F12006.2528
G1 X240 A80.6427 F12264.4805
G1 X240.537 A80.7216 F12264.4805
M05 $0
(contorno 7/7 asola assiale 40×12 @180°)
G0 X161.2489 A171.4161
M03 $0 S1
G1 X161.5793 A170.4712 F12370.6273
G1 X161.9711 A169.6544 F12370.6273
G1 X162.4148 A168.986 F12370.6273
G1 X162.8993 A168.4824 F12370.6273
G1 X163.4129 A168.1559 F12370.6273
G1 X163.9427 A168.0147 F12370.6273
G1 X164.4758 A168.0622 F12370.6273
G1 X164.999 A168.2972 F12370.6273
G1 X165.4996 A168.714 F12370.6273
G1 X165.965 A169.3023 F12370.6273
G1 X167.63 A171.8129 F3295.4743
G1 X168.742 A175.5664 F3297.7583
G1 X169.133 A179.999 F3294.1966
G1 X168.742 A184.4338 F3292.5848
G1 X167.63 A188.1873 F3297.7583
G1 X165.965 A190.6979 F3295.4743
G1 X163.915 A191.616 F3157.877
G1 X136.085 A191.616 F237.1542
G1 X134.035 A190.6979 F3157.877
G1 X132.37 A188.1873 F3295.4743
G1 X131.258 A184.4338 F3297.7583
G1 X130.867 A179.999 F3292.5848
G1 X131.258 A175.5664 F3294.1966
G1 X132.37 A171.8129 F3297.7583
G1 X134.035 A169.3023 F3295.4743
G1 X136.086 A168.3819 F3156.1016
G1 X163.914 A168.3819 F237.1712
G1 X165.965 A169.3023 F3156.1016
M05 $0
M05 $0
G94
G0 X0 A0
M2
