(QtPlasmaC ROTARY — CamForge · post QtPlasmaC-nativo turnkey)
(tubo tondo Ø48.3 mm · lunghezza 300 mm · perimetro 151.7389 mm)
(X = asse tubo mm · A = rotazione gradi · torcia a standoff fisso)
(feed superficie 6600 mm/min via G93 inverse-time · contorni 7)
(#<keep-z-motion> salta il probe sul tubo · THC off · pierce/arco/materiale gestiti da QtPlasmaC)
G21 G40 G49 G64 P0.1 G80 G90 G92.1 G97
#<keep-z-motion>=1
M190 P2
M66 P3 L3 Q1
G93
(contorno 1/7 foro-top Ø10 @u60)
G0 X56.5412 A-3.4233
M03 $0 S1
G1 X56.6861 A-4.6415 F12370.6273
G1 X56.9097 A-5.7908 F12370.6273
G1 X57.2062 A-6.8431 F12370.6273
G1 X57.5685 A-7.7723 F12370.6273
G1 X57.9876 A-8.5556 F12370.6273
G1 X58.4532 A-9.1737 F12370.6273
G1 X58.9538 A-9.6114 F12370.6273
G1 X59.4771 A-9.858 F12370.6273
G1 X60.0102 A-9.9073 F12370.6273
G1 X60.54 A-9.7581 F12370.6273
G1 X61.072 A-9.5066 F12166.8547
G1 X61.588 A-9.089 F12105.8741
G1 X62.075 A-8.522 F12166.2345
G1 X62.528 A-7.8031 F12110.2344
G1 X62.934 A-6.9609 F12237.7391
G1 X63.289 A-5.9977 F12237.7391
G1 X63.592 A-4.9229 F12110.2344
G1 X63.831 A-3.7675 F12166.2345
G1 X64.007 A-2.5433 F12105.8741
G1 X64.113 A-1.2811 F12166.8547
G1 X64.148 A0 F12196.6303
G1 X64.113 A1.2811 F12196.6303
G1 X64.007 A2.5433 F12166.8547
G1 X63.831 A3.7675 F12105.8741
G1 X63.592 A4.9229 F12166.2345
G1 X63.289 A5.9977 F12110.2344
G1 X62.934 A6.9609 F12237.7391
G1 X62.528 A7.8031 F12237.7391
G1 X62.075 A8.522 F12110.2344
G1 X61.588 A9.089 F12166.2345
G1 X61.072 A9.5066 F12105.8741
G1 X60.54 A9.7581 F12166.8547
G1 X60 A9.8411 F12196.6303
G1 X59.46 A9.7581 F12196.6303
G1 X58.928 A9.5066 F12166.8547
G1 X58.412 A9.089 F12105.8741
G1 X57.925 A8.522 F12166.2345
G1 X57.472 A7.8031 F12110.2344
G1 X57.066 A6.9609 F12237.7391
G1 X56.711 A5.9977 F12237.7391
G1 X56.408 A4.9229 F12110.2344
G1 X56.169 A3.7675 F12166.2345
G1 X55.993 A2.5433 F12105.8741
G1 X55.887 A1.2811 F12166.8547
G1 X55.852 A0 F12196.6303
G1 X55.887 A-1.2811 F12196.6303
G1 X55.993 A-2.5433 F12166.8547
G1 X56.169 A-3.7675 F12105.8741
G1 X56.408 A-4.9229 F12166.2345
G1 X56.711 A-5.9977 F12110.2344
G1 X57.066 A-6.9609 F12237.7391
G1 X57.472 A-7.8031 F12237.7391
G1 X57.925 A-8.522 F12110.2344
G1 X58.412 A-9.089 F12166.2345
G1 X58.928 A-9.5066 F12105.8741
G1 X59.46 A-9.7581 F12166.8547
G1 X60 A-9.8411 F12196.6303
G1 X60.54 A-9.7581 F12196.6303
M05 $0
(contorno 2/7 foro-top Ø10 @u150)
G0 X146.5412 A-3.4233
M03 $0 S1
G1 X146.6861 A-4.6415 F12370.6273
G1 X146.9097 A-5.7908 F12370.6273
G1 X147.2062 A-6.8431 F12370.6273
G1 X147.5685 A-7.7723 F12370.6273
G1 X147.9876 A-8.5556 F12370.6273
G1 X148.4532 A-9.1737 F12370.6273
G1 X148.9538 A-9.6114 F12370.6273
G1 X149.4771 A-9.858 F12370.6273
G1 X150.0102 A-9.9073 F12370.6273
G1 X150.54 A-9.7581 F12370.6273
G1 X151.072 A-9.5066 F12166.8547
G1 X151.588 A-9.089 F12105.8741
G1 X152.075 A-8.522 F12166.2345
G1 X152.528 A-7.8031 F12110.2344
G1 X152.934 A-6.9609 F12237.7391
G1 X153.289 A-5.9977 F12237.7391
G1 X153.592 A-4.9229 F12110.2344
G1 X153.831 A-3.7675 F12166.2345
G1 X154.007 A-2.5433 F12105.8741
G1 X154.113 A-1.2811 F12166.8547
G1 X154.148 A0 F12196.6303
G1 X154.113 A1.2811 F12196.6303
G1 X154.007 A2.5433 F12166.8547
G1 X153.831 A3.7675 F12105.8741
G1 X153.592 A4.9229 F12166.2345
G1 X153.289 A5.9977 F12110.2344
G1 X152.934 A6.9609 F12237.7391
G1 X152.528 A7.8031 F12237.7391
G1 X152.075 A8.522 F12110.2344
G1 X151.588 A9.089 F12166.2345
G1 X151.072 A9.5066 F12105.8741
G1 X150.54 A9.7581 F12166.8547
G1 X150 A9.8411 F12196.6303
G1 X149.46 A9.7581 F12196.6303
G1 X148.928 A9.5066 F12166.8547
G1 X148.412 A9.089 F12105.8741
G1 X147.925 A8.522 F12166.2345
G1 X147.472 A7.8031 F12110.2344
G1 X147.066 A6.9609 F12237.7391
G1 X146.711 A5.9977 F12237.7391
G1 X146.408 A4.9229 F12110.2344
G1 X146.169 A3.7675 F12166.2345
G1 X145.993 A2.5433 F12105.8741
G1 X145.887 A1.2811 F12166.8547
G1 X145.852 A0 F12196.6303
G1 X145.887 A-1.2811 F12196.6303
G1 X145.993 A-2.5433 F12166.8547
G1 X146.169 A-3.7675 F12105.8741
G1 X146.408 A-4.9229 F12166.2345
G1 X146.711 A-5.9977 F12110.2344
G1 X147.066 A-6.9609 F12237.7391
G1 X147.472 A-7.8031 F12237.7391
G1 X147.925 A-8.522 F12110.2344
G1 X148.412 A-9.089 F12166.2345
G1 X148.928 A-9.5066 F12105.8741
G1 X149.46 A-9.7581 F12166.8547
G1 X150 A-9.8411 F12196.6303
G1 X150.54 A-9.7581 F12196.6303
M05 $0
(contorno 3/7 foro-top Ø10 @u240)
G0 X236.5412 A-3.4233
M03 $0 S1
G1 X236.6861 A-4.6415 F12370.6273
G1 X236.9097 A-5.7908 F12370.6273
G1 X237.2062 A-6.8431 F12370.6273
G1 X237.5685 A-7.7723 F12370.6273
G1 X237.9876 A-8.5556 F12370.6273
G1 X238.4532 A-9.1737 F12370.6273
G1 X238.9538 A-9.6114 F12370.6273
G1 X239.4771 A-9.858 F12370.6273
G1 X240.0102 A-9.9073 F12370.6273
G1 X240.54 A-9.7581 F12370.6273
G1 X241.072 A-9.5066 F12166.8547
G1 X241.588 A-9.089 F12105.8741
G1 X242.075 A-8.522 F12166.2345
G1 X242.528 A-7.8031 F12110.2344
G1 X242.934 A-6.9609 F12237.7391
G1 X243.289 A-5.9977 F12237.7391
G1 X243.592 A-4.9229 F12110.2344
G1 X243.831 A-3.7675 F12166.2345
G1 X244.007 A-2.5433 F12105.8741
G1 X244.113 A-1.2811 F12166.8547
G1 X244.148 A0 F12196.6303
G1 X244.113 A1.2811 F12196.6303
G1 X244.007 A2.5433 F12166.8547
G1 X243.831 A3.7675 F12105.8741
G1 X243.592 A4.9229 F12166.2345
G1 X243.289 A5.9977 F12110.2344
G1 X242.934 A6.9609 F12237.7391
G1 X242.528 A7.8031 F12237.7391
G1 X242.075 A8.522 F12110.2344
G1 X241.588 A9.089 F12166.2345
G1 X241.072 A9.5066 F12105.8741
G1 X240.54 A9.7581 F12166.8547
G1 X240 A9.8411 F12196.6303
G1 X239.46 A9.7581 F12196.6303
G1 X238.928 A9.5066 F12166.8547
G1 X238.412 A9.089 F12105.8741
G1 X237.925 A8.522 F12166.2345
G1 X237.472 A7.8031 F12110.2344
G1 X237.066 A6.9609 F12237.7391
G1 X236.711 A5.9977 F12237.7391
G1 X236.408 A4.9229 F12110.2344
G1 X236.169 A3.7675 F12166.2345
G1 X235.993 A2.5433 F12105.8741
G1 X235.887 A1.2811 F12166.8547
G1 X235.852 A0 F12196.6303
G1 X235.887 A-1.2811 F12196.6303
G1 X235.993 A-2.5433 F12166.8547
G1 X236.169 A-3.7675 F12105.8741
G1 X236.408 A-4.9229 F12166.2345
G1 X236.711 A-5.9977 F12110.2344
G1 X237.066 A-6.9609 F12237.7391
G1 X237.472 A-7.8031 F12237.7391
G1 X237.925 A-8.522 F12110.2344
G1 X238.412 A-9.089 F12166.2345
G1 X238.928 A-9.5066 F12105.8741
G1 X239.46 A-9.7581 F12166.8547
G1 X240 A-9.8411 F12196.6303
G1 X240.54 A-9.7581 F12196.6303
M05 $0
(contorno 4/7 foro-side Ø10 @u60)
G0 X56.544 A86.5875
M03 $0 S1
G1 X56.6885 A85.369 F12370.6273
G1 X56.9115 A84.2191 F12370.6273
G1 X57.2075 A83.1661 F12370.6273
G1 X57.5694 A82.2359 F12370.6273
G1 X57.9881 A81.4516 F12370.6273
G1 X58.4534 A80.8323 F12370.6273
G1 X58.9538 A80.3932 F12370.6273
G1 X59.477 A80.1454 F12370.6273
G1 X60.0101 A80.0947 F12370.6273
G1 X60.54 A80.2426 F12370.6273
G1 X61.075 A80.494 F12101.2134
G1 X61.589 A80.9092 F12155.2733
G1 X62.072 A81.4739 F12257.3083
G1 X62.528 A82.1975 F12030.6426
G1 X62.934 A83.0397 F12237.7391
G1 X63.289 A84.003 F12237.7391
G1 X63.594 A85.0848 F12030.6426
G1 X63.83 A86.2236 F12339.2295
G1 X64.007 A87.4573 F12015.3219
G1 X64.113 A88.7195 F12166.8547
G1 X64.148 A90.0006 F12196.6303
G1 X64.113 A91.2794 F12219.1636
G1 X64.007 A92.544 F12144.8968
G1 X63.831 A93.7682 F12105.8741
G1 X63.592 A94.9236 F12166.2345
G1 X63.292 A95.9888 F12222.2013
G1 X62.93 A96.9663 F12034.1018
G1 X62.526 A97.8061 F12287.0307
G1 X62.077 A98.5203 F12209.6255
G1 X61.586 A99.092 F12066.7613
G1 X61.076 A99.5025 F12255.2796
G1 X60.537 A99.7587 F12006.2528
G1 X60 A99.8418 F12264.4805
G1 X59.463 A99.7587 F12264.4805
G1 X58.924 A99.5025 F12006.2528
G1 X58.414 A99.092 F12255.2796
G1 X57.923 A98.5203 F12066.7613
G1 X57.474 A97.8061 F12209.6255
G1 X57.07 A96.9663 F12287.0307
G1 X56.708 A95.9888 F12034.1018
G1 X56.408 A94.9236 F12222.2013
G1 X56.169 A93.7682 F12166.2345
G1 X55.993 A92.544 F12105.8741
G1 X55.887 A91.2794 F12144.8968
G1 X55.852 A90.0006 F12219.1636
G1 X55.887 A88.7195 F12196.6303
G1 X55.993 A87.4573 F12166.8547
G1 X56.17 A86.2236 F12015.3219
G1 X56.406 A85.0848 F12339.2295
G1 X56.711 A84.003 F12030.6426
G1 X57.066 A83.0397 F12237.7391
G1 X57.472 A82.1975 F12237.7391
G1 X57.928 A81.4739 F12030.6426
G1 X58.411 A80.9092 F12257.3083
G1 X58.925 A80.494 F12155.2733
G1 X59.46 A80.2426 F12101.2134
G1 X60 A80.1595 F12196.6303
G1 X60.54 A80.2426 F12196.6303
M05 $0
(contorno 5/7 foro-side Ø10 @u150)
G0 X146.544 A86.5875
M03 $0 S1
G1 X146.6885 A85.369 F12370.6273
G1 X146.9115 A84.2191 F12370.6273
G1 X147.2075 A83.1661 F12370.6273
G1 X147.5694 A82.2359 F12370.6273
G1 X147.9881 A81.4516 F12370.6273
G1 X148.4534 A80.8323 F12370.6273
G1 X148.9538 A80.3932 F12370.6273
G1 X149.477 A80.1454 F12370.6273
G1 X150.0101 A80.0947 F12370.6273
G1 X150.54 A80.2426 F12370.6273
G1 X151.075 A80.494 F12101.2134
G1 X151.589 A80.9092 F12155.2733
G1 X152.072 A81.4739 F12257.3083
G1 X152.528 A82.1975 F12030.6426
G1 X152.934 A83.0397 F12237.7391
G1 X153.289 A84.003 F12237.7391
G1 X153.594 A85.0848 F12030.6426
G1 X153.83 A86.2236 F12339.2295
G1 X154.007 A87.4573 F12015.3219
G1 X154.113 A88.7195 F12166.8547
G1 X154.148 A90.0006 F12196.6303
G1 X154.113 A91.2794 F12219.1636
G1 X154.007 A92.544 F12144.8968
G1 X153.831 A93.7682 F12105.8741
G1 X153.592 A94.9236 F12166.2345
G1 X153.292 A95.9888 F12222.2013
G1 X152.93 A96.9663 F12034.1018
G1 X152.526 A97.8061 F12287.0307
G1 X152.077 A98.5203 F12209.6255
G1 X151.586 A99.092 F12066.7613
G1 X151.076 A99.5025 F12255.2796
G1 X150.537 A99.7587 F12006.2528
G1 X150 A99.8418 F12264.4805
G1 X149.463 A99.7587 F12264.4805
G1 X148.924 A99.5025 F12006.2528
G1 X148.414 A99.092 F12255.2796
G1 X147.923 A98.5203 F12066.7613
G1 X147.474 A97.8061 F12209.6255
G1 X147.07 A96.9663 F12287.0307
G1 X146.708 A95.9888 F12034.1018
G1 X146.408 A94.9236 F12222.2013
G1 X146.169 A93.7682 F12166.2345
G1 X145.993 A92.544 F12105.8741
G1 X145.887 A91.2794 F12144.8968
G1 X145.852 A90.0006 F12219.1636
G1 X145.887 A88.7195 F12196.6303
G1 X145.993 A87.4573 F12166.8547
G1 X146.17 A86.2236 F12015.3219
G1 X146.406 A85.0848 F12339.2295
G1 X146.711 A84.003 F12030.6426
G1 X147.066 A83.0397 F12237.7391
G1 X147.472 A82.1975 F12237.7391
G1 X147.928 A81.4739 F12030.6426
G1 X148.411 A80.9092 F12257.3083
G1 X148.925 A80.494 F12155.2733
G1 X149.46 A80.2426 F12101.2134
G1 X150 A80.1595 F12196.6303
G1 X150.54 A80.2426 F12196.6303
M05 $0
(contorno 6/7 foro-side Ø10 @u240)
G0 X236.544 A86.5875
M03 $0 S1
G1 X236.6885 A85.369 F12370.6273
G1 X236.9115 A84.2191 F12370.6273
G1 X237.2075 A83.1661 F12370.6273
G1 X237.5694 A82.2359 F12370.6273
G1 X237.9881 A81.4516 F12370.6273
G1 X238.4534 A80.8323 F12370.6273
G1 X238.9538 A80.3932 F12370.6273
G1 X239.477 A80.1454 F12370.6273
G1 X240.0101 A80.0947 F12370.6273
G1 X240.54 A80.2426 F12370.6273
G1 X241.075 A80.494 F12101.2134
G1 X241.589 A80.9092 F12155.2733
G1 X242.072 A81.4739 F12257.3083
G1 X242.528 A82.1975 F12030.6426
G1 X242.934 A83.0397 F12237.7391
G1 X243.289 A84.003 F12237.7391
G1 X243.594 A85.0848 F12030.6426
G1 X243.83 A86.2236 F12339.2295
G1 X244.007 A87.4573 F12015.3219
G1 X244.113 A88.7195 F12166.8547
G1 X244.148 A90.0006 F12196.6303
G1 X244.113 A91.2794 F12219.1636
G1 X244.007 A92.544 F12144.8968
G1 X243.831 A93.7682 F12105.8741
G1 X243.592 A94.9236 F12166.2345
G1 X243.292 A95.9888 F12222.2013
G1 X242.93 A96.9663 F12034.1018
G1 X242.526 A97.8061 F12287.0307
G1 X242.077 A98.5203 F12209.6255
G1 X241.586 A99.092 F12066.7613
G1 X241.076 A99.5025 F12255.2796
G1 X240.537 A99.7587 F12006.2528
G1 X240 A99.8418 F12264.4805
G1 X239.463 A99.7587 F12264.4805
G1 X238.924 A99.5025 F12006.2528
G1 X238.414 A99.092 F12255.2796
G1 X237.923 A98.5203 F12066.7613
G1 X237.474 A97.8061 F12209.6255
G1 X237.07 A96.9663 F12287.0307
G1 X236.708 A95.9888 F12034.1018
G1 X236.408 A94.9236 F12222.2013
G1 X236.169 A93.7682 F12166.2345
G1 X235.993 A92.544 F12105.8741
G1 X235.887 A91.2794 F12144.8968
G1 X235.852 A90.0006 F12219.1636
G1 X235.887 A88.7195 F12196.6303
G1 X235.993 A87.4573 F12166.8547
G1 X236.17 A86.2236 F12015.3219
G1 X236.406 A85.0848 F12339.2295
G1 X236.711 A84.003 F12030.6426
G1 X237.066 A83.0397 F12237.7391
G1 X237.472 A82.1975 F12237.7391
G1 X237.928 A81.4739 F12030.6426
G1 X238.411 A80.9092 F12257.3083
G1 X238.925 A80.494 F12155.2733
G1 X239.46 A80.2426 F12101.2134
G1 X240 A80.1595 F12196.6303
G1 X240.54 A80.2426 F12196.6303
M05 $0
(contorno 7/7 asola assiale 40×12 @180°)
G0 X161.2489 A170.9718
M03 $0 S1
G1 X161.5793 A169.9779 F12370.6273
G1 X161.9711 A169.1189 F12370.6273
G1 X162.4148 A168.4159 F12370.6273
G1 X162.8993 A167.8862 F12370.6273
G1 X163.4129 A167.5429 F12370.6273
G1 X163.9427 A167.3943 F12370.6273
G1 X164.4758 A167.4443 F12370.6273
G1 X164.999 A167.6915 F12370.6273
G1 X165.4996 A168.1298 F12370.6273
G1 X165.965 A168.7485 F12370.6273
G1 X167.63 A171.3891 F3295.4743
G1 X168.742 A175.3369 F3297.7583
G1 X169.133 A179.9989 F3294.1966
G1 X168.742 A184.6632 F3292.5848
G1 X167.63 A188.6111 F3297.7583
G1 X165.965 A191.2517 F3295.4743
G1 X163.915 A192.2173 F3157.877
G1 X136.085 A192.2173 F237.1542
G1 X134.035 A191.2517 F3157.877
G1 X132.37 A188.6111 F3295.4743
G1 X131.258 A184.6632 F3297.7583
G1 X130.867 A179.9989 F3292.5848
G1 X131.258 A175.3369 F3294.1966
G1 X132.37 A171.3891 F3297.7583
G1 X134.035 A168.7485 F3295.4743
G1 X136.086 A167.7805 F3156.1016
G1 X163.914 A167.7805 F237.1712
G1 X165.965 A168.7485 F3156.1016
M05 $0
M05 $0
G94
G0 X0 A0
M2
