(QtPlasmaC ROTARY — CamForge · post QtPlasmaC-nativo turnkey)
(tubo tondo Ø60.3 mm · lunghezza 400 mm · perimetro 189.438 mm)
(X = asse tubo mm · A = rotazione gradi · torcia a standoff fisso)
(feed superficie 5330 mm/min via G93 inverse-time · contorni 7)
(#<keep-z-motion> salta il probe sul tubo · THC off · pierce/arco/materiale gestiti da QtPlasmaC)
G21 G40 G49 G64 P0.1 G80 G90 G92.1 G97
#<keep-z-motion>=1
M190 P3
M66 P3 L3 Q1
G93
(contorno 1/7 foro-top Ø10 @u80)
G0 X77.5131 A-4.3065
M03 $0 S1
G1 X77.6236 A-5.0528 F13064.1322
G1 X77.7941 A-5.7572 F13064.1322
G1 X78.0206 A-6.4021 F13064.1322
G1 X78.2973 A-6.9718 F13064.1322
G1 X78.6175 A-7.4522 F13064.1322
G1 X78.9734 A-7.8315 F13064.1322
G1 X79.3561 A-8.1003 F13064.1322
G1 X79.7561 A-8.2521 F13064.1322
G1 X80.1638 A-8.2831 F13064.1322
G1 X80.569 A-8.1924 F13064.1322
G1 X81.129 A-7.9815 F9336.2191
G1 X81.664 A-7.6337 F9426.4112
G1 X82.171 A-7.1605 F9436.2152
G1 X82.651 A-6.5505 F9230.3402
G1 X83.075 A-5.8436 F9449.4041
G1 X83.447 A-5.0378 F9449.4041
G1 X83.768 A-4.1257 F9230.3402
G1 X84.017 A-3.1622 F9436.2152
G1 X84.2 A-2.1455 F9426.4112
G1 X84.311 A-1.0813 F9336.2191
G1 X84.348 A0 F9347.5692
G1 X84.311 A1.0813 F9347.5692
G1 X84.2 A2.1455 F9336.2191
G1 X84.017 A3.1622 F9426.4112
G1 X83.768 A4.1257 F9436.2152
G1 X83.447 A5.0378 F9230.3402
G1 X83.075 A5.8436 F9449.4041
G1 X82.651 A6.5505 F9449.4041
G1 X82.171 A7.1605 F9230.3402
G1 X81.664 A7.6337 F9436.2152
G1 X81.129 A7.9815 F9426.4112
G1 X80.569 A8.1924 F9336.2191
G1 X80 A8.2628 F9347.5692
G1 X79.431 A8.1924 F9347.5692
G1 X78.871 A7.9815 F9336.2191
G1 X78.336 A7.6337 F9426.4112
G1 X77.829 A7.1605 F9436.2152
G1 X77.349 A6.5505 F9230.3402
G1 X76.925 A5.8436 F9449.4041
G1 X76.553 A5.0378 F9449.4041
G1 X76.232 A4.1257 F9230.3402
G1 X75.983 A3.1622 F9436.2152
G1 X75.8 A2.1455 F9426.4112
G1 X75.689 A1.0813 F9336.2191
G1 X75.652 A0 F9347.5692
G1 X75.689 A-1.0813 F9347.5692
G1 X75.8 A-2.1455 F9336.2191
G1 X75.983 A-3.1622 F9426.4112
G1 X76.232 A-4.1257 F9436.2152
G1 X76.553 A-5.0378 F9230.3402
G1 X76.925 A-5.8436 F9449.4041
G1 X77.349 A-6.5505 F9449.4041
G1 X77.829 A-7.1605 F9230.3402
G1 X78.336 A-7.6337 F9436.2152
G1 X78.871 A-7.9815 F9426.4112
G1 X79.431 A-8.1924 F9336.2191
G1 X80 A-8.2628 F9347.5692
G1 X80.569 A-8.1924 F9347.5692
M05 $0
(contorno 2/7 foro-top Ø10 @u200)
G0 X197.5131 A-4.3065
M03 $0 S1
G1 X197.6236 A-5.0528 F13064.1322
G1 X197.7941 A-5.7572 F13064.1322
G1 X198.0206 A-6.4021 F13064.1322
G1 X198.2973 A-6.9718 F13064.1322
G1 X198.6175 A-7.4522 F13064.1322
G1 X198.9734 A-7.8315 F13064.1322
G1 X199.3561 A-8.1003 F13064.1322
G1 X199.7561 A-8.2521 F13064.1322
G1 X200.1638 A-8.2831 F13064.1322
G1 X200.569 A-8.1924 F13064.1322
G1 X201.129 A-7.9815 F9336.2191
G1 X201.664 A-7.6337 F9426.4112
G1 X202.171 A-7.1605 F9436.2152
G1 X202.651 A-6.5505 F9230.3402
G1 X203.075 A-5.8436 F9449.4041
G1 X203.447 A-5.0378 F9449.4041
G1 X203.768 A-4.1257 F9230.3402
G1 X204.017 A-3.1622 F9436.2152
G1 X204.2 A-2.1455 F9426.4112
G1 X204.311 A-1.0813 F9336.2191
G1 X204.348 A0 F9347.5692
G1 X204.311 A1.0813 F9347.5692
G1 X204.2 A2.1455 F9336.2191
G1 X204.017 A3.1622 F9426.4112
G1 X203.768 A4.1257 F9436.2152
G1 X203.447 A5.0378 F9230.3402
G1 X203.075 A5.8436 F9449.4041
G1 X202.651 A6.5505 F9449.4041
G1 X202.171 A7.1605 F9230.3402
G1 X201.664 A7.6337 F9436.2152
G1 X201.129 A7.9815 F9426.4112
G1 X200.569 A8.1924 F9336.2191
G1 X200 A8.2628 F9347.5692
G1 X199.431 A8.1924 F9347.5692
G1 X198.871 A7.9815 F9336.2191
G1 X198.336 A7.6337 F9426.4112
G1 X197.829 A7.1605 F9436.2152
G1 X197.349 A6.5505 F9230.3402
G1 X196.925 A5.8436 F9449.4041
G1 X196.553 A5.0378 F9449.4041
G1 X196.232 A4.1257 F9230.3402
G1 X195.983 A3.1622 F9436.2152
G1 X195.8 A2.1455 F9426.4112
G1 X195.689 A1.0813 F9336.2191
G1 X195.652 A0 F9347.5692
G1 X195.689 A-1.0813 F9347.5692
G1 X195.8 A-2.1455 F9336.2191
G1 X195.983 A-3.1622 F9426.4112
G1 X196.232 A-4.1257 F9436.2152
G1 X196.553 A-5.0378 F9230.3402
G1 X196.925 A-5.8436 F9449.4041
G1 X197.349 A-6.5505 F9449.4041
G1 X197.829 A-7.1605 F9230.3402
G1 X198.336 A-7.6337 F9436.2152
G1 X198.871 A-7.9815 F9426.4112
G1 X199.431 A-8.1924 F9336.2191
G1 X200 A-8.2628 F9347.5692
G1 X200.569 A-8.1924 F9347.5692
M05 $0
(contorno 3/7 foro-top Ø10 @u320)
G0 X317.5131 A-4.3065
M03 $0 S1
G1 X317.6236 A-5.0528 F13064.1322
G1 X317.7941 A-5.7572 F13064.1322
G1 X318.0206 A-6.4021 F13064.1322
G1 X318.2973 A-6.9718 F13064.1322
G1 X318.6175 A-7.4522 F13064.1322
G1 X318.9734 A-7.8315 F13064.1322
G1 X319.3561 A-8.1003 F13064.1322
G1 X319.7561 A-8.2521 F13064.1322
G1 X320.1638 A-8.2831 F13064.1322
G1 X320.569 A-8.1924 F13064.1322
G1 X321.129 A-7.9815 F9336.2191
G1 X321.664 A-7.6337 F9426.4112
G1 X322.171 A-7.1605 F9436.2152
G1 X322.651 A-6.5505 F9230.3402
G1 X323.075 A-5.8436 F9449.4041
G1 X323.447 A-5.0378 F9449.4041
G1 X323.768 A-4.1257 F9230.3402
G1 X324.017 A-3.1622 F9436.2152
G1 X324.2 A-2.1455 F9426.4112
G1 X324.311 A-1.0813 F9336.2191
G1 X324.348 A0 F9347.5692
G1 X324.311 A1.0813 F9347.5692
G1 X324.2 A2.1455 F9336.2191
G1 X324.017 A3.1622 F9426.4112
G1 X323.768 A4.1257 F9436.2152
G1 X323.447 A5.0378 F9230.3402
G1 X323.075 A5.8436 F9449.4041
G1 X322.651 A6.5505 F9449.4041
G1 X322.171 A7.1605 F9230.3402
G1 X321.664 A7.6337 F9436.2152
G1 X321.129 A7.9815 F9426.4112
G1 X320.569 A8.1924 F9336.2191
G1 X320 A8.2628 F9347.5692
G1 X319.431 A8.1924 F9347.5692
G1 X318.871 A7.9815 F9336.2191
G1 X318.336 A7.6337 F9426.4112
G1 X317.829 A7.1605 F9436.2152
G1 X317.349 A6.5505 F9230.3402
G1 X316.925 A5.8436 F9449.4041
G1 X316.553 A5.0378 F9449.4041
G1 X316.232 A4.1257 F9230.3402
G1 X315.983 A3.1622 F9436.2152
G1 X315.8 A2.1455 F9426.4112
G1 X315.689 A1.0813 F9336.2191
G1 X315.652 A0 F9347.5692
G1 X315.689 A-1.0813 F9347.5692
G1 X315.8 A-2.1455 F9336.2191
G1 X315.983 A-3.1622 F9426.4112
G1 X316.232 A-4.1257 F9436.2152
G1 X316.553 A-5.0378 F9230.3402
G1 X316.925 A-5.8436 F9449.4041
G1 X317.349 A-6.5505 F9449.4041
G1 X317.829 A-7.1605 F9230.3402
G1 X318.336 A-7.6337 F9436.2152
G1 X318.871 A-7.9815 F9426.4112
G1 X319.431 A-8.1924 F9336.2191
G1 X320 A-8.2628 F9347.5692
G1 X320.569 A-8.1924 F9347.5692
M05 $0
(contorno 4/7 foro-side Ø10 @u80)
G0 X77.5175 A85.6927
M03 $0 S1
G1 X77.6281 A84.9464 F13064.1322
G1 X77.7987 A84.2422 F13064.1322
G1 X78.0253 A83.5974 F13064.1322
G1 X78.3021 A83.0278 F13064.1322
G1 X78.6224 A82.5476 F13064.1322
G1 X78.9783 A82.1685 F13064.1322
G1 X79.361 A81.8999 F13064.1322
G1 X79.7612 A81.7484 F13064.1322
G1 X80.1688 A81.7176 F13064.1322
G1 X80.574 A81.8085 F13064.1322
G1 X81.118 A82.0137 F9610.2358
G1 X81.669 A82.3691 F9160.1582
G1 X82.176 A82.8442 F9428.8446
G1 X82.646 A83.4409 F9429.6266
G1 X83.075 A84.1573 F9332.6548
G1 X83.447 A84.9631 F9449.4041
G1 X83.766 A85.8715 F9274.8967
G1 X84.018 A86.8425 F9354.8371
G1 X84.2 A87.8535 F9479.4249
G1 X84.311 A88.9196 F9320.2046
G1 X84.348 A90.0009 F9347.5692
G1 X84.311 A91.0803 F9363.9567
G1 X84.2 A92.1464 F9320.2046
G1 X84.017 A93.1631 F9426.4112
G1 X83.765 A94.1361 F9340.1317
G1 X83.452 A95.0274 F9452.8214
G1 X83.075 A95.8426 F9332.6548
G1 X82.646 A96.5591 F9332.6548
G1 X82.176 A97.1558 F9429.6266
G1 X81.669 A97.6309 F9428.8446
G1 X81.118 A97.9862 F9160.1582
G1 X80.574 A98.1915 F9610.2358
G1 X80 A98.2637 F9265.4326
G1 X79.426 A98.1915 F9265.4326
G1 X78.882 A97.9862 F9610.2358
G1 X78.331 A97.6309 F9160.1582
G1 X77.824 A97.1558 F9428.8446
G1 X77.354 A96.5591 F9429.6266
G1 X76.925 A95.8426 F9332.6548
G1 X76.548 A95.0274 F9332.6548
G1 X76.235 A94.1361 F9452.8214
G1 X75.983 A93.1631 F9340.1317
G1 X75.8 A92.1464 F9426.4112
G1 X75.689 A91.0803 F9320.2046
G1 X75.652 A90.0009 F9363.9567
G1 X75.689 A88.9196 F9347.5692
G1 X75.8 A87.8535 F9320.2046
G1 X75.982 A86.8425 F9479.4249
G1 X76.234 A85.8715 F9354.8371
G1 X76.553 A84.9631 F9274.8967
G1 X76.925 A84.1573 F9449.4041
G1 X77.354 A83.4409 F9332.6548
G1 X77.824 A82.8442 F9429.6266
G1 X78.331 A82.3691 F9428.8446
G1 X78.882 A82.0137 F9160.1582
G1 X79.426 A81.8085 F9610.2358
G1 X80 A81.7382 F9266.4827
G1 X80.574 A81.8085 F9266.4827
M05 $0
(contorno 5/7 foro-side Ø10 @u200)
G0 X197.5175 A85.6927
M03 $0 S1
G1 X197.6281 A84.9464 F13064.1322
G1 X197.7987 A84.2422 F13064.1322
G1 X198.0253 A83.5974 F13064.1322
G1 X198.3021 A83.0278 F13064.1322
G1 X198.6224 A82.5476 F13064.1322
G1 X198.9783 A82.1685 F13064.1322
G1 X199.361 A81.8999 F13064.1322
G1 X199.7612 A81.7484 F13064.1322
G1 X200.1688 A81.7176 F13064.1322
G1 X200.574 A81.8085 F13064.1322
G1 X201.118 A82.0137 F9610.2358
G1 X201.669 A82.3691 F9160.1582
G1 X202.176 A82.8442 F9428.8446
G1 X202.646 A83.4409 F9429.6266
G1 X203.075 A84.1573 F9332.6548
G1 X203.447 A84.9631 F9449.4041
G1 X203.766 A85.8715 F9274.8967
G1 X204.018 A86.8425 F9354.8371
G1 X204.2 A87.8535 F9479.4249
G1 X204.311 A88.9196 F9320.2046
G1 X204.348 A90.0009 F9347.5692
G1 X204.311 A91.0803 F9363.9567
G1 X204.2 A92.1464 F9320.2046
G1 X204.017 A93.1631 F9426.4112
G1 X203.765 A94.1361 F9340.1317
G1 X203.452 A95.0274 F9452.8214
G1 X203.075 A95.8426 F9332.6548
G1 X202.646 A96.5591 F9332.6548
G1 X202.176 A97.1558 F9429.6266
G1 X201.669 A97.6309 F9428.8446
G1 X201.118 A97.9862 F9160.1582
G1 X200.574 A98.1915 F9610.2358
G1 X200 A98.2637 F9265.4326
G1 X199.426 A98.1915 F9265.4326
G1 X198.882 A97.9862 F9610.2358
G1 X198.331 A97.6309 F9160.1582
G1 X197.824 A97.1558 F9428.8446
G1 X197.354 A96.5591 F9429.6266
G1 X196.925 A95.8426 F9332.6548
G1 X196.548 A95.0274 F9332.6548
G1 X196.235 A94.1361 F9452.8214
G1 X195.983 A93.1631 F9340.1317
G1 X195.8 A92.1464 F9426.4112
G1 X195.689 A91.0803 F9320.2046
G1 X195.652 A90.0009 F9363.9567
G1 X195.689 A88.9196 F9347.5692
G1 X195.8 A87.8535 F9320.2046
G1 X195.982 A86.8425 F9479.4249
G1 X196.234 A85.8715 F9354.8371
G1 X196.553 A84.9631 F9274.8967
G1 X196.925 A84.1573 F9449.4041
G1 X197.354 A83.4409 F9332.6548
G1 X197.824 A82.8442 F9429.6266
G1 X198.331 A82.3691 F9428.8446
G1 X198.882 A82.0137 F9160.1582
G1 X199.426 A81.8085 F9610.2358
G1 X200 A81.7382 F9266.4827
G1 X200.574 A81.8085 F9266.4827
M05 $0
(contorno 6/7 foro-side Ø10 @u320)
G0 X317.5175 A85.6927
M03 $0 S1
G1 X317.6281 A84.9464 F13064.1322
G1 X317.7987 A84.2422 F13064.1322
G1 X318.0253 A83.5974 F13064.1322
G1 X318.3021 A83.0278 F13064.1322
G1 X318.6224 A82.5476 F13064.1322
G1 X318.9783 A82.1685 F13064.1322
G1 X319.361 A81.8999 F13064.1322
G1 X319.7612 A81.7484 F13064.1322
G1 X320.1688 A81.7176 F13064.1322
G1 X320.574 A81.8085 F13064.1322
G1 X321.118 A82.0137 F9610.2358
G1 X321.669 A82.3691 F9160.1582
G1 X322.176 A82.8442 F9428.8446
G1 X322.646 A83.4409 F9429.6266
G1 X323.075 A84.1573 F9332.6548
G1 X323.447 A84.9631 F9449.4041
G1 X323.766 A85.8715 F9274.8967
G1 X324.018 A86.8425 F9354.8371
G1 X324.2 A87.8535 F9479.4249
G1 X324.311 A88.9196 F9320.2046
G1 X324.348 A90.0009 F9347.5692
G1 X324.311 A91.0803 F9363.9567
G1 X324.2 A92.1464 F9320.2046
G1 X324.017 A93.1631 F9426.4112
G1 X323.765 A94.1361 F9340.1317
G1 X323.452 A95.0274 F9452.8214
G1 X323.075 A95.8426 F9332.6548
G1 X322.646 A96.5591 F9332.6548
G1 X322.176 A97.1558 F9429.6266
G1 X321.669 A97.6309 F9428.8446
G1 X321.118 A97.9862 F9160.1582
G1 X320.574 A98.1915 F9610.2358
G1 X320 A98.2637 F9265.4326
G1 X319.426 A98.1915 F9265.4326
G1 X318.882 A97.9862 F9610.2358
G1 X318.331 A97.6309 F9160.1582
G1 X317.824 A97.1558 F9428.8446
G1 X317.354 A96.5591 F9429.6266
G1 X316.925 A95.8426 F9332.6548
G1 X316.548 A95.0274 F9332.6548
G1 X316.235 A94.1361 F9452.8214
G1 X315.983 A93.1631 F9340.1317
G1 X315.8 A92.1464 F9426.4112
G1 X315.689 A91.0803 F9320.2046
G1 X315.652 A90.0009 F9363.9567
G1 X315.689 A88.9196 F9347.5692
G1 X315.8 A87.8535 F9320.2046
G1 X315.982 A86.8425 F9479.4249
G1 X316.234 A85.8715 F9354.8371
G1 X316.553 A84.9631 F9274.8967
G1 X316.925 A84.1573 F9449.4041
G1 X317.354 A83.4409 F9332.6548
G1 X317.824 A82.8442 F9429.6266
G1 X318.331 A82.3691 F9428.8446
G1 X318.882 A82.0137 F9160.1582
G1 X319.426 A81.8085 F9610.2358
G1 X320 A81.7382 F9266.4827
G1 X320.574 A81.8085 F9266.4827
M05 $0
(contorno 7/7 asola assiale 40×12 @180°)
G0 X212.4339 A171.9923
M03 $0 S1
G1 X212.6864 A171.3833 F13064.1322
G1 X212.9859 A170.8569 F13064.1322
G1 X213.3251 A170.426 F13064.1322
G1 X213.6955 A170.1012 F13064.1322
G1 X214.0882 A169.8906 F13064.1322
G1 X214.4933 A169.7992 F13064.1322
G1 X214.901 A169.8295 F13064.1322
G1 X215.3012 A169.9806 F13064.1322
G1 X215.684 A170.2487 F13064.1322
G1 X216.04 A170.6274 F13064.1322
G1 X217.774 A172.828 F2556.2094
G1 X218.932 A176.1232 F2556.2094
G1 X219.338 A180 F2562.4893
G1 X218.932 A183.8767 F2562.4893
G1 X217.774 A187.1719 F2556.2094
G1 X216.04 A189.3725 F2556.2094
G1 X213.938 A190.1669 F2486.9837
G1 X186.062 A190.1669 F191.2039
G1 X183.96 A189.3725 F2486.9837
G1 X182.226 A187.1719 F2556.2094
G1 X181.068 A183.8767 F2556.2094
G1 X180.662 A180 F2562.4893
G1 X181.068 A176.1232 F2562.4893
G1 X182.226 A172.828 F2556.2094
G1 X183.96 A170.6274 F2556.2094
G1 X186.062 A169.8331 F2486.9837
G1 X213.938 A169.8331 F191.2039
G1 X216.04 A170.6274 F2486.9837
M05 $0
M05 $0
G94
G0 X0 A0
M2
