(Taglio lamiera piatta — CamForge post QtPlasmaC piatto LinuxCNC)
(contorni 5 4 fori · feed 4220 mm/min · 4 tab da 3 mm)
G21 G40 G49 G64 P0.1 G80 G90 G92.1 G94 G97
M190 P4
M66 P3 L3 Q1
(contorno 1/5 dxf-ring [foro])
G0 X116.757 Y146.09
M03 $0 S1
G1 X116.896 Y146.507 F4220
G1 X116.968 Y146.94
G1 X116.972 Y147.38
G1 X116.907 Y147.814
G1 X116.775 Y148.233
G1 X116.578 Y148.626
G1 X116.323 Y148.984
G1 X116.015 Y149.297
G1 X115.662 Y149.558
G1 X115.272 Y149.761
G1 X113.871 Y150.355
G1 X112.483 Y150.888
G1 X111.033 Y151.387
G1 X109.607 Y151.823
G1 X108.155 Y152.212
G1 X106.67 Y152.555
G1 X105.196 Y152.841
G1 X103.721 Y153.075
G1 X102.2 Y153.262
G1 X100.719 Y153.391
G1 X99.208 Y153.47
G1 X97.696 Y153.497
G1 X96.185 Y153.47
G1 X94.674 Y153.391
G1 X93.193 Y153.262
G1 X91.672 Y153.075
G1 X90.196 Y152.841
G1 X88.723 Y152.555
G1 X87.238 Y152.212
G1 X85.786 Y151.823
G1 X84.36 Y151.387
G1 X82.91 Y150.888
G1 X81.522 Y150.355
G1 X80.121 Y149.761
G1 X78.77 Y149.13
G1 X77.405 Y148.435
G1 X76.108 Y147.716
G1 X74.795 Y146.927
G1 X73.543 Y146.114
G1 X72.295 Y145.24
G1 X71.11 Y144.347
G1 X69.92 Y143.383
G1 X68.8 Y142.409
G1 X67.68 Y141.364
G1 X66.613 Y140.298
G1 X65.585 Y139.195
G1 X64.605 Y138.067
G1 X63.658 Y136.897
G1 X62.75 Y135.693
G1 X61.875 Y134.444
G1 X61.068 Y133.2
G1 X60.279 Y131.887
G1 X59.56 Y130.589
G1 X58.873 Y129.241
G1 X58.228 Y127.857
G1 X57.648 Y126.492
G1 X57.099 Y125.061
G1 X56.608 Y123.636
G1 X56.172 Y122.208
G1 X55.777 Y120.737
G1 X55.442 Y119.283
G1 X55.151 Y117.787
G1 X54.92 Y116.323
G1 X54.733 Y114.802
G1 X54.603 Y113.32
G1 X54.524 Y111.809
G1 X54.497 Y110.31
G1 X54.524 Y108.778
G1 X54.603 Y107.273
G1 X54.733 Y105.794
G1 X54.92 Y104.274
G1 X55.151 Y102.809
G1 X55.444 Y101.305
G1 X55.777 Y99.859
G1 X56.174 Y98.379
G1 X56.608 Y96.961
G1 X57.099 Y95.535
G1 X57.648 Y94.104
G1 X58.228 Y92.739
G1 X58.875 Y91.35
G1 X59.56 Y90.007
G1 X60.279 Y88.709
G1 X61.055 Y87.416
G1 X61.875 Y86.152
G1 X62.754 Y84.897
G1 X63.663 Y83.692
G1 X64.605 Y82.529
G1 X65.585 Y81.401
G1 X66.613 Y80.298
G1 X67.68 Y79.232
G1 X68.8 Y78.187
G1 X69.92 Y77.213
G1 X71.11 Y76.249
G1 X72.295 Y75.356
G1 X73.543 Y74.482
G1 X74.795 Y73.67
G1 X76.108 Y72.88
G1 X77.405 Y72.162
G1 X78.77 Y71.466
G1 X80.114 Y70.839
G1 X81.525 Y70.241
G1 X82.91 Y69.708
G1 X84.359 Y69.21
G1 X85.786 Y68.774
G1 X87.239 Y68.384
G1 X88.723 Y68.041
G1 X90.196 Y67.755
G1 X91.672 Y67.521
G1 X93.193 Y67.334
G1 X94.674 Y67.205
G1 X96.185 Y67.126
G1 X97.696 Y67.099
G1 X99.208 Y67.126
G1 X100.719 Y67.205
G1 X102.2 Y67.334
G1 X103.721 Y67.521
G1 X105.196 Y67.755
G1 X106.67 Y68.041
G1 X108.154 Y68.384
G1 X109.607 Y68.774
G1 X111.034 Y69.21
G1 X112.483 Y69.708
G1 X113.868 Y70.241
G1 X115.279 Y70.839
G1 X116.623 Y71.466
G1 X117.988 Y72.162
G1 X119.285 Y72.88
G1 X120.598 Y73.67
G1 X121.85 Y74.482
G1 X123.098 Y75.356
G1 X124.302 Y76.264
G1 X125.465 Y77.206
G1 X126.593 Y78.187
G1 X127.713 Y79.232
G1 X128.78 Y80.298
G1 X129.808 Y81.401
G1 X130.788 Y82.529
G1 X131.73 Y83.692
G1 X132.638 Y84.896
G1 X133.516 Y86.151
G1 X134.338 Y87.416
G1 X135.114 Y88.709
G1 X135.833 Y90.007
G1 X136.518 Y91.35
G1 X137.165 Y92.739
G1 X137.745 Y94.104
G1 X138.294 Y95.535
G1 X138.785 Y96.961
G1 X139.219 Y98.379
G1 X139.61 Y99.835
G1 X139.949 Y101.305
G1 X140.242 Y102.809
G1 X140.473 Y104.274
G1 X140.66 Y105.794
G1 X140.79 Y107.273
G1 X140.869 Y108.778
G1 X140.896 Y110.286
G1 X140.869 Y111.809
G1 X140.79 Y113.32
G1 X140.66 Y114.802
G1 X140.473 Y116.323
G1 X140.242 Y117.787
G1 X139.951 Y119.283
G1 X139.616 Y120.737
G1 X139.221 Y122.208
G1 X138.785 Y123.636
G1 X138.294 Y125.061
G1 X137.745 Y126.492
G1 X137.165 Y127.857
G1 X136.52 Y129.241
G1 X135.833 Y130.589
G1 X135.114 Y131.887
G1 X134.325 Y133.2
G1 X133.516 Y134.445
G1 X132.639 Y135.699
G1 X131.735 Y136.897
G1 X130.788 Y138.067
G1 X129.808 Y139.195
G1 X128.78 Y140.298
G1 X127.713 Y141.364
G1 X126.593 Y142.409
G1 X125.465 Y143.39
G1 X124.302 Y144.332
G1 X123.098 Y145.24
G1 X121.85 Y146.114
G1 X120.598 Y146.927
G1 X119.285 Y147.716
G1 X117.988 Y148.435
G1 X116.623 Y149.13
G1 X115.272 Y149.761
M05 $0
(contorno 2/5 dxf-ring [foro])
G0 X352.319 Y158.256
M03 $0 S1
G1 X352.458 Y158.673 F4220
G1 X352.531 Y159.106
G1 X352.535 Y159.546
G1 X352.47 Y159.98
G1 X352.338 Y160.399
G1 X352.142 Y160.793
G1 X351.887 Y161.15
G1 X351.579 Y161.464
G1 X351.226 Y161.725
G1 X350.836 Y161.928
G1 X349.609 Y162.449
G1 X349.609 Y162.448
G1 X348.326 Y162.94
G1 X347.045 Y163.381
G1 X345.769 Y163.771
G1 X344.468 Y164.12
G1 X343.135 Y164.428
G1 X341.816 Y164.684
G1 X340.495 Y164.894
G1 X339.13 Y165.061
G1 X337.804 Y165.177
G1 X336.449 Y165.248
G1 X335.095 Y165.272
G1 X333.74 Y165.248
G1 X332.385 Y165.177
G1 X331.06 Y165.061
G1 X329.694 Y164.894
G1 X328.374 Y164.684
G1 X327.054 Y164.428
G1 X325.722 Y164.12
G1 X324.421 Y163.771
G1 X323.144 Y163.381
G1 X321.864 Y162.94
G1 X320.581 Y162.448
G1 X320.581 Y162.449
G1 X319.354 Y161.928
G1 X318.135 Y161.359
G1 X316.909 Y160.735
G1 X315.749 Y160.092
G1 X314.57 Y159.383
G1 X313.436 Y158.647
G1 X312.349 Y157.886
G1 X311.27 Y157.073
G1 X310.201 Y156.207
G1 X309.194 Y155.331
G1 X308.208 Y154.412
G1 X307.238 Y153.442
G1 X306.317 Y152.454
G1 X305.446 Y151.452
G1 X304.58 Y150.383
G1 X303.767 Y149.304
G1 X303.006 Y148.217
G1 X302.27 Y147.083
G1 X301.561 Y145.904
G1 X300.918 Y144.744
G1 X300.294 Y143.518
G1 X299.722 Y142.293
G1 X299.201 Y141.064
G1 X298.72 Y139.811
G1 X298.272 Y138.51
G1 X297.882 Y137.232
G1 X297.533 Y135.931
G1 X297.224 Y134.595
G1 X296.967 Y133.269
G1 X296.76 Y131.959
G1 X296.592 Y130.593
G1 X296.476 Y129.268
G1 X296.405 Y127.913
G1 X296.381 Y126.57
G1 X296.405 Y125.195
G1 X296.476 Y123.846
G1 X296.592 Y122.524
G1 X296.76 Y121.159
G1 X296.967 Y119.847
G1 X297.224 Y118.522
G1 X297.534 Y117.181
G1 X297.884 Y115.875
G1 X298.272 Y114.607
G1 X298.72 Y113.306
G1 X299.196 Y112.067
G1 X299.733 Y110.8
G1 X300.294 Y109.598
G1 X300.918 Y108.373
G1 X301.561 Y107.212
G1 X302.27 Y106.033
G1 X303.006 Y104.899
G1 X303.767 Y103.812
G1 X304.58 Y102.734
G1 X305.446 Y101.665
G1 X306.317 Y100.662
G1 X307.238 Y99.674
G1 X308.211 Y98.701
G1 X309.199 Y97.78
G1 X310.209 Y96.902
G1 X311.25 Y96.059
G1 X312.349 Y95.231
G1 X313.436 Y94.47
G1 X314.582 Y93.725
G1 X315.74 Y93.03
G1 X316.909 Y92.382
G1 X318.113 Y91.768
G1 X319.36 Y91.187
G1 X320.581 Y90.668
G1 X321.866 Y90.175
G1 X323.143 Y89.735
G1 X324.421 Y89.345
G1 X325.729 Y88.994
G1 X327.042 Y88.691
G1 X328.385 Y88.43
G1 X329.694 Y88.223
G1 X331.06 Y88.055
G1 X332.385 Y87.939
G1 X333.74 Y87.868
G1 X335.095 Y87.844
G1 X336.449 Y87.868
G1 X337.804 Y87.939
G1 X339.129 Y88.055
G1 X340.494 Y88.223
G1 X341.805 Y88.43
G1 X343.147 Y88.691
G1 X344.462 Y88.994
G1 X345.769 Y89.345
G1 X347.046 Y89.735
G1 X348.324 Y90.175
G1 X349.609 Y90.668
G1 X350.83 Y91.187
G1 X352.077 Y91.768
G1 X353.281 Y92.382
G1 X354.45 Y93.03
G1 X355.608 Y93.725
G1 X356.754 Y94.47
G1 X357.841 Y95.231
G1 X358.939 Y96.059
G1 X359.981 Y96.902
G1 X360.991 Y97.78
G1 X361.979 Y98.701
G1 X362.952 Y99.674
G1 X363.873 Y100.662
G1 X364.751 Y101.673
G1 X365.594 Y102.714
G1 X366.422 Y103.812
G1 X367.183 Y104.899
G1 X367.933 Y106.053
G1 X368.628 Y107.211
G1 X369.271 Y108.373
G1 X369.885 Y109.576
G1 X370.466 Y110.823
G1 X370.993 Y112.064
G1 X370.995 Y112.067
G1 X370.995 Y112.068
G1 X371.47 Y113.306
G1 X371.918 Y114.607
G1 X372.306 Y115.875
G1 X372.656 Y117.18
G1 X372.96 Y118.498
G1 X373.223 Y119.848
G1 X373.43 Y121.159
G1 X373.598 Y122.524
G1 X373.714 Y123.846
G1 X373.785 Y125.195
G1 X373.809 Y126.546
G1 X373.785 Y127.913
G1 X373.714 Y129.268
G1 X373.598 Y130.593
G1 X373.43 Y131.959
G1 X373.223 Y133.268
G1 X372.962 Y134.611
G1 X372.662 Y135.912
G1 X372.308 Y137.232
G1 X371.918 Y138.51
G1 X371.47 Y139.811
G1 X370.993 Y141.053
G1 X370.466 Y142.293
G1 X369.887 Y143.535
G1 X369.271 Y144.744
G1 X368.628 Y145.905
G1 X367.933 Y147.063
G1 X367.183 Y148.217
G1 X366.422 Y149.304
G1 X365.599 Y150.396
G1 X364.751 Y151.444
G1 X363.873 Y152.454
G1 X362.952 Y153.442
G1 X361.982 Y154.412
G1 X360.996 Y155.331
G1 X359.981 Y156.214
G1 X358.939 Y157.058
G1 X357.841 Y157.886
G1 X356.754 Y158.647
G1 X355.62 Y159.383
G1 X354.441 Y160.092
G1 X353.281 Y160.735
G1 X352.055 Y161.359
G1 X350.836 Y161.928
M05 $0
(contorno 3/5 dxf-ring [foro])
G0 X336.808 Y357.137
M03 $0 S1
G1 X336.797 Y357.576 F4220
G1 X336.717 Y358.008
G1 X336.57 Y358.422
G1 X336.36 Y358.808
G1 X336.093 Y359.157
G1 X335.774 Y359.459
G1 X335.412 Y359.708
G1 X335.016 Y359.898
G1 X334.595 Y360.023
G1 X334.159 Y360.08
G1 X333 Y360.141
G1 X331.843 Y360.162
G1 X330.686 Y360.141
G1 X329.527 Y360.08
G1 X328.4 Y359.982
G1 X327.23 Y359.838
G1 X326.113 Y359.662
G1 X324.966 Y359.439
G1 X323.844 Y359.18
G1 X322.727 Y358.88
G1 X321.639 Y358.547
G1 X320.524 Y358.164
G1 X319.455 Y357.753
G1 X318.401 Y357.306
G1 X317.361 Y356.821
G1 X316.311 Y356.286
G1 X315.311 Y355.731
G1 X314.313 Y355.131
G1 X313.365 Y354.516
G1 X312.399 Y353.84
G1 X311.498 Y353.161
G1 X310.582 Y352.419
G1 X309.723 Y351.673
G1 X308.882 Y350.888
G1 X308.052 Y350.058
G1 X307.265 Y349.214
G1 X306.517 Y348.353
G1 X305.798 Y347.464
G1 X305.088 Y346.523
G1 X304.427 Y345.578
G1 X303.812 Y344.63
G1 X303.205 Y343.62
G1 X302.646 Y342.611
G1 X302.122 Y341.582
G1 X301.634 Y340.536
G1 X301.193 Y339.496
G1 X301.194 Y339.496
G1 X300.772 Y338.396
G1 X300.396 Y337.305
G1 X300.063 Y336.216
G1 X299.76 Y335.087
G1 X299.504 Y333.977
G1 X299.281 Y332.829
G1 X299.105 Y331.713
G1 X298.961 Y330.543
G1 X298.863 Y329.416
G1 X298.802 Y328.258
G1 X298.781 Y327.112
G1 X298.802 Y325.934
G1 X298.863 Y324.782
G1 X298.961 Y323.657
G1 X299.105 Y322.488
G1 X299.281 Y321.372
G1 X299.506 Y320.215
G1 X299.76 Y319.114
G1 X300.065 Y317.975
G1 X300.396 Y316.895
G1 X300.772 Y315.804
G1 X301.194 Y314.704
G1 X301.193 Y314.704
G1 X301.634 Y313.664
G1 X302.122 Y312.618
G1 X302.657 Y311.568
G1 X303.217 Y310.56
G1 X303.799 Y309.59
G1 X304.426 Y308.623
G1 X305.088 Y307.678
G1 X305.798 Y306.737
G1 X306.517 Y305.848
G1 X307.265 Y304.987
G1 X308.052 Y304.143
G1 X308.885 Y303.309
G1 X309.729 Y302.523
G1 X310.582 Y301.782
G1 X311.498 Y301.04
G1 X312.399 Y300.361
G1 X313.365 Y299.685
G1 X314.313 Y299.069
G1 X315.323 Y298.462
G1 X316.311 Y297.915
G1 X317.361 Y297.38
G1 X318.391 Y296.899
G1 X319.447 Y296.451
G1 X320.547 Y296.029
G1 X321.621 Y295.659
G1 X322.741 Y295.317
G1 X323.844 Y295.021
G1 X324.966 Y294.762
G1 X326.114 Y294.539
G1 X327.23 Y294.363
G1 X328.4 Y294.219
G1 X329.529 Y294.12
G1 X330.684 Y294.06
G1 X331.843 Y294.039
G1 X333.002 Y294.06
G1 X334.157 Y294.12
G1 X335.286 Y294.219
G1 X336.455 Y294.363
G1 X337.571 Y294.539
G1 X338.719 Y294.762
G1 X339.841 Y295.021
G1 X340.945 Y295.317
G1 X342.065 Y295.659
G1 X343.139 Y296.029
G1 X344.239 Y296.451
G1 X345.295 Y296.899
G1 X346.325 Y297.38
G1 X347.375 Y297.915
G1 X348.371 Y298.467
G1 X349.361 Y299.061
G1 X350.321 Y299.685
G1 X351.285 Y300.36
G1 X352.187 Y301.04
G1 X353.103 Y301.782
G1 X353.957 Y302.523
G1 X354.8 Y303.309
G1 X355.634 Y304.143
G1 X356.42 Y304.987
G1 X357.161 Y305.84
G1 X357.903 Y306.756
G1 X358.583 Y307.658
G1 X359.259 Y308.623
G1 X359.887 Y309.59
G1 X360.481 Y310.58
G1 X361.028 Y311.568
G1 X361.563 Y312.618
G1 X362.041 Y313.642
G1 X362.492 Y314.704
G1 X362.914 Y315.804
G1 X363.282 Y316.871
G1 X363.626 Y317.998
G1 X363.919 Y319.09
G1 X364.179 Y320.215
G1 X364.404 Y321.372
G1 X364.581 Y322.487
G1 X364.724 Y323.656
G1 X364.823 Y324.782
G1 X364.884 Y325.934
G1 X364.904 Y327.088
G1 X364.884 Y328.258
G1 X364.823 Y329.415
G1 X364.724 Y330.544
G1 X364.581 Y331.713
G1 X364.404 Y332.829
G1 X364.181 Y333.977
G1 X363.925 Y335.087
G1 X363.626 Y336.202
G1 X363.284 Y337.322
G1 X362.914 Y338.396
G1 X362.492 Y339.496
G1 X362.044 Y340.552
G1 X361.563 Y341.582
G1 X361.028 Y342.632
G1 X360.481 Y343.62
G1 X359.874 Y344.63
G1 X359.258 Y345.578
G1 X358.583 Y346.543
G1 X357.903 Y347.445
G1 X357.161 Y348.361
G1 X356.42 Y349.214
G1 X355.634 Y350.058
G1 X354.817 Y350.874
G1 X353.956 Y351.678
G1 X353.103 Y352.419
G1 X352.187 Y353.161
G1 X351.285 Y353.841
G1 X350.327 Y354.512
G1 X349.361 Y355.139
G1 X348.383 Y355.726
G1 X347.375 Y356.286
G1 X346.325 Y356.821
G1 X345.285 Y357.306
G1 X344.231 Y357.753
G1 X343.162 Y358.164
G1 X342.047 Y358.547
G1 X340.959 Y358.88
G1 X339.841 Y359.18
G1 X338.719 Y359.439
G1 X337.572 Y359.662
G1 X336.455 Y359.838
G1 X335.286 Y359.982
G1 X334.159 Y360.08
M05 $0
(contorno 4/5 dxf-ring [foro])
G0 X113.04 Y361.614
M03 $0 S1
G1 X113.18 Y362.031 F4220
G1 X113.253 Y362.464
G1 X113.256 Y362.903
G1 X113.192 Y363.338
G1 X113.06 Y363.757
G1 X112.864 Y364.15
G1 X112.609 Y364.508
G1 X112.301 Y364.822
G1 X111.948 Y365.083
G1 X111.558 Y365.286
G1 X110.308 Y365.817
G1 X110.308 Y365.816
G1 X109.002 Y366.317
G1 X107.699 Y366.766
G1 X106.407 Y367.161
G1 X105.072 Y367.519
G1 X103.717 Y367.832
G1 X102.369 Y368.094
G1 X101.028 Y368.306
G1 X99.637 Y368.477
G1 X98.287 Y368.595
G1 X96.908 Y368.667
G1 X95.528 Y368.691
G1 X94.149 Y368.667
G1 X92.77 Y368.595
G1 X91.419 Y368.477
G1 X90.029 Y368.306
G1 X88.688 Y368.094
G1 X87.34 Y367.832
G1 X85.985 Y367.519
G1 X84.65 Y367.161
G1 X83.358 Y366.766
G1 X82.055 Y366.317
G1 X80.749 Y365.816
G1 X80.749 Y365.817
G1 X79.499 Y365.286
G1 X78.258 Y364.707
G1 X77.01 Y364.071
G1 X75.819 Y363.411
G1 X74.639 Y362.703
G1 X73.473 Y361.945
G1 X72.366 Y361.17
G1 X71.267 Y360.342
G1 X70.19 Y359.469
G1 X69.151 Y358.567
G1 X68.135 Y357.618
G1 X67.161 Y356.645
G1 X66.223 Y355.639
G1 X65.336 Y354.618
G1 X64.455 Y353.53
G1 X63.627 Y352.431
G1 X62.852 Y351.324
G1 X62.102 Y350.169
G1 X61.381 Y348.969
G1 X60.726 Y347.787
G1 X60.09 Y346.539
G1 X59.508 Y345.292
G1 X58.98 Y344.048
G1 X58.981 Y344.048
G1 X58.479 Y342.74
G1 X58.031 Y341.439
G1 X57.636 Y340.146
G1 X57.273 Y338.794
G1 X56.967 Y337.468
G1 X56.702 Y336.102
G1 X56.491 Y334.767
G1 X56.32 Y333.377
G1 X56.202 Y332.027
G1 X56.13 Y330.648
G1 X56.105 Y329.28
G1 X56.13 Y327.88
G1 X56.202 Y326.505
G1 X56.32 Y325.159
G1 X56.491 Y323.769
G1 X56.702 Y322.434
G1 X56.964 Y321.084
G1 X57.279 Y319.72
G1 X57.636 Y318.39
G1 X58.031 Y317.098
G1 X58.487 Y315.773
G1 X58.98 Y314.489
G1 X59.508 Y313.245
G1 X60.09 Y311.998
G1 X60.726 Y310.75
G1 X61.381 Y309.567
G1 X62.089 Y308.387
G1 X62.852 Y307.213
G1 X63.627 Y306.106
G1 X64.455 Y305.007
G1 X65.336 Y303.919
G1 X66.223 Y302.898
G1 X67.161 Y301.891
G1 X68.152 Y300.901
G1 X69.158 Y299.963
G1 X70.179 Y299.076
G1 X71.267 Y298.195
G1 X72.366 Y297.367
G1 X73.473 Y296.592
G1 X74.639 Y295.834
G1 X75.819 Y295.126
G1 X77.01 Y294.466
G1 X78.258 Y293.83
G1 X79.499 Y293.251
G1 X80.749 Y292.72
G1 X80.749 Y292.721
G1 X82.057 Y292.219
G1 X83.358 Y291.771
G1 X84.65 Y291.376
G1 X85.985 Y291.018
G1 X87.34 Y290.705
G1 X88.688 Y290.443
G1 X90.029 Y290.231
G1 X91.419 Y290.06
G1 X92.77 Y289.942
G1 X94.149 Y289.87
G1 X95.528 Y289.845
G1 X96.908 Y289.87
G1 X98.287 Y289.942
G1 X99.637 Y290.06
G1 X101.028 Y290.231
G1 X102.369 Y290.443
G1 X103.717 Y290.705
G1 X105.072 Y291.018
G1 X106.407 Y291.376
G1 X107.699 Y291.771
G1 X109 Y292.219
G1 X110.308 Y292.721
G1 X110.308 Y292.72
G1 X111.558 Y293.251
G1 X112.799 Y293.83
G1 X114.047 Y294.466
G1 X115.229 Y295.121
G1 X116.429 Y295.842
G1 X117.584 Y296.592
G1 X118.691 Y297.367
G1 X119.79 Y298.195
G1 X120.878 Y299.076
G1 X121.899 Y299.963
G1 X122.905 Y300.901
G1 X123.896 Y301.891
G1 X124.817 Y302.88
G1 X125.735 Y303.937
G1 X126.602 Y305.007
G1 X127.43 Y306.106
G1 X128.205 Y307.213
G1 X128.968 Y308.387
G1 X129.676 Y309.567
G1 X130.331 Y310.75
G1 X130.967 Y311.998
G1 X131.549 Y313.245
G1 X132.077 Y314.489
G1 X132.57 Y315.773
G1 X133.026 Y317.098
G1 X133.421 Y318.39
G1 X133.778 Y319.72
G1 X134.093 Y321.084
G1 X134.355 Y322.434
G1 X134.566 Y323.769
G1 X134.737 Y325.159
G1 X134.855 Y326.505
G1 X134.927 Y327.88
G1 X134.952 Y329.256
G1 X134.927 Y330.648
G1 X134.855 Y332.027
G1 X134.737 Y333.377
G1 X134.566 Y334.767
G1 X134.355 Y336.102
G1 X134.09 Y337.468
G1 X133.784 Y338.794
G1 X133.421 Y340.146
G1 X133.026 Y341.439
G1 X132.578 Y342.74
G1 X132.076 Y344.048
G1 X132.077 Y344.048
G1 X131.549 Y345.292
G1 X130.967 Y346.539
G1 X130.331 Y347.787
G1 X129.676 Y348.969
G1 X128.955 Y350.169
G1 X128.205 Y351.324
G1 X127.43 Y352.431
G1 X126.602 Y353.53
G1 X125.735 Y354.6
G1 X124.817 Y355.657
G1 X123.896 Y356.645
G1 X122.922 Y357.618
G1 X121.906 Y358.567
G1 X120.867 Y359.469
G1 X119.79 Y360.342
G1 X118.691 Y361.17
G1 X117.584 Y361.945
G1 X116.429 Y362.695
G1 X115.229 Y363.416
G1 X114.047 Y364.071
G1 X112.799 Y364.707
G1 X111.558 Y365.286
M05 $0
(contorno 5/5 dxf-ring [perimetro])
G0 X473.396 Y-3.5
M03 $0 S1
G1 X473.362 Y-3.062 F4220
G1 X473.259 Y-2.635
G1 X473.091 Y-2.229
G1 X472.861 Y-1.854
G1 X472.576 Y-1.52
G1 X472.242 Y-1.235
G1 X471.867 Y-1.005
G1 X471.461 Y-0.837
G1 X471.034 Y-0.734
G1 X470.596 Y-0.7
G1 X250.991 Y-0.7
M05 $0
G0 X247.991 Y-0.7
M03 $0 S1
G1 X0 Y-0.7 F4220
G1 X-0.402 Y-0.573
G1 X-0.621 Y-0.323
G1 X-0.7 Y0
G1 X-0.7 Y190.134
M05 $0
G0 X-0.7 Y193.134
M03 $0 S1
G1 X-0.7 Y411.653 F4220
G1 X-0.573 Y412.055
G1 X-0.323 Y412.274
G1 X0 Y412.353
G1 X219.605 Y412.353
M05 $0
G0 X222.605 Y412.353
M03 $0 S1
G1 X470.596 Y412.353 F4220
G1 X470.998 Y412.226
G1 X471.217 Y411.976
G1 X471.296 Y411.653
G1 X471.296 Y221.519
M05 $0
G0 X471.296 Y218.519
M03 $0 S1
G1 X471.296 Y0 F4220
G1 X471.169 Y-0.402
G1 X470.919 Y-0.621
G1 X470.596 Y-0.7
M05 $0
M05 $0
M2
