(QtPlasmaC ROTARY — CamForge · post QtPlasmaC-nativo turnkey)
(tubo tondo Ø131.1 mm · lunghezza 490.5962 mm · perimetro 411.8628 mm)
(X = asse tubo mm · A = rotazione gradi · torcia a standoff fisso)
(feed superficie 4220 mm/min via G93 inverse-time · contorni 5)
(#<keep-z-motion> salta il probe sul tubo · THC off · pierce/arco/materiale gestiti da QtPlasmaC)
G21 G40 G49 G64 P0.1 G80 G90 G92.1 G97
#<keep-z-motion>=1
M190 P4
M66 P3 L3 Q1
G93
(contorno 1/5 dxf-ring)
G0 X137.8501 A-59.8039
M03 $0 S1
G1 X138.1237 A-59.5034 F9604.6408
G1 X138.3402 A-59.1692 F9604.6408
G1 X138.4942 A-58.8095 F9604.6408
G1 X138.5819 A-58.4332 F9604.6408
G1 X138.6012 A-58.0495 F9604.6408
G1 X138.5515 A-57.6679 F9604.6408
G1 X138.4342 A-57.2978 F9604.6408
G1 X138.2521 A-56.9483 F9604.6408
G1 X138.0097 A-56.628 F9604.6408
G1 X137.713 A-56.3448 F9604.6408
G1 X136.593 A-55.4314 F2754.9208
G1 X135.473 A-54.5809 F2844.3937
G1 X134.282 A-53.7374 F2752.9967
G1 X133.098 A-52.9569 F2845.5729
G1 X131.85 A-52.1929 F2769.7421
G1 X130.598 A-51.4832 F2827.9203
G1 X129.285 A-50.7935 F2754.8826
G1 X127.988 A-50.1651 F2845.6603
G1 X126.645 A-49.5663 F2799.141
G1 X125.256 A-49.0008 F2754.0377
G1 X123.871 A-48.4868 F2804.6406
G1 X122.483 A-48.0209 F2838.2727
G1 X121.033 A-47.5848 F2751.9457
G1 X119.607 A-47.2037 F2830.0027
G1 X118.148 A-46.861 F2793.3272
G1 X116.682 A-46.5656 F2804.9931
G1 X115.186 A-46.3112 F2768.9567
G1 X113.721 A-46.1093 F2845.3912
G1 X112.2 A-45.9459 F2753.7562
G1 X110.719 A-45.8323 F2838.5116
G1 X109.208 A-45.7632 F2789.043
G1 X107.696 A-45.7396 F2790.5604
G1 X106.185 A-45.7632 F2792.4066
G1 X104.674 A-45.8323 F2789.043
G1 X103.193 A-45.9459 F2838.5116
G1 X101.672 A-46.1093 F2753.7562
G1 X100.206 A-46.3112 F2843.4973
G1 X98.711 A-46.5656 F2770.7413
G1 X97.245 A-46.861 F2804.9931
G1 X95.786 A-47.2037 F2793.3272
G1 X94.36 A-47.5848 F2830.0027
G1 X92.91 A-48.0209 F2751.9457
G1 X91.522 A-48.4868 F2838.2727
G1 X90.137 A-49.0008 F2804.6406
G1 X88.748 A-49.5663 F2754.0377
G1 X87.405 A-50.1651 F2799.141
G1 X86.108 A-50.7935 F2845.6603
G1 X84.795 A-51.4832 F2754.8826
G1 X83.543 A-52.1929 F2827.9203
G1 X82.295 A-52.9569 F2769.7421
G1 X81.11 A-53.7374 F2844.0416
G1 X79.92 A-54.5809 F2754.3926
G1 X78.8 A-55.4314 F2844.3937
G1 X77.68 A-56.3448 F2754.9208
G1 X76.63 A-57.2626 F2841.8958
G1 X75.585 A-58.2415 F2754.9208
G1 X74.612 A-59.2205 F2844.3937
G1 X73.648 A-60.2607 F2755.525
G1 X72.75 A-61.3017 F2829.1675
G1 X71.875 A-62.3934 F2767.2125
G1 X71.055 A-63.4982 F2800.8532
G1 X70.279 A-64.6284 F2798.4325
G1 X69.56 A-65.763 F2843.9828
G1 X68.873 A-66.9412 F2789.2191
G1 X68.228 A-68.1509 F2763.7357
G1 X67.638 A-69.365 F2796.3453
G1 X67.107 A-70.5748 F2846.7951
G1 X66.608 A-71.8413 F2753.6437
G1 X66.172 A-73.0886 F2828.1889
G1 X65.777 A-74.3744 F2770.6457
G1 X65.442 A-75.6453 F2828.2423
G1 X65.151 A-76.9529 F2768.9567
G1 X64.92 A-78.2334 F2845.3912
G1 X64.733 A-79.5629 F2753.7562
G1 X64.603 A-80.8574 F2838.5116
G1 X64.524 A-82.1781 F2789.043
G1 X64.497 A-83.4884 F2814.7536
G1 X64.524 A-84.8283 F2752.3455
G1 X64.603 A-86.1438 F2800.1317
G1 X64.733 A-87.4357 F2844.2289
G1 X64.92 A-88.7652 F2753.7562
G1 X65.151 A-90.0448 F2847.2875
G1 X65.444 A-91.3603 F2752.3127
G1 X65.777 A-92.6242 F2843.957
G1 X66.174 A-93.9179 F2753.9914
G1 X66.608 A-95.1573 F2845.7185
G1 X67.107 A-96.4239 F2753.6437
G1 X67.638 A-97.6336 F2846.7951
G1 X68.228 A-98.8477 F2796.3453
G1 X68.875 A-100.0618 F2754.0377
G1 X69.56 A-101.2357 F2799.141
G1 X70.279 A-102.3693 F2845.6603
G1 X71.068 A-103.517 F2754.8826
G1 X71.875 A-104.6052 F2844.3
G1 X72.74 A-105.6847 F2798.7864
G1 X73.663 A-106.7537 F2754.1972
G1 X74.605 A-107.7711 F2818.1848
G1 X75.585 A-108.7571 F2824.1587
G1 X76.63 A-109.7361 F2754.9208
G1 X77.68 A-110.6538 F2841.8958
G1 X78.8 A-111.5673 F2754.9208
G1 X79.92 A-112.4177 F2844.3937
G1 X81.11 A-113.2603 F2755.525
G1 X82.294 A-114.0409 F2845.5729
G1 X83.549 A-114.8083 F2755.2237
G1 X84.795 A-115.5155 F2840.6098
G1 X86.108 A-116.2051 F2754.8826
G1 X87.405 A-116.8336 F2845.6603
G1 X88.748 A-117.4323 F2799.141
G1 X90.137 A-117.9978 F2754.0377
G1 X91.526 A-118.5135 F2796.3453
G1 X92.91 A-118.9777 F2846.7951
G1 X94.359 A-119.4138 F2753.6437
G1 X95.786 A-119.7949 F2828.1889
G1 X97.245 A-120.1376 F2793.3272
G1 X98.711 A-120.433 F2804.9931
G1 X100.207 A-120.6874 F2768.9567
G1 X101.672 A-120.8893 F2845.3912
G1 X103.193 A-121.0527 F2753.7562
G1 X104.674 A-121.1664 F2838.5116
G1 X106.185 A-121.2354 F2789.043
G1 X107.696 A-121.259 F2792.4066
G1 X109.208 A-121.2354 F2790.5604
G1 X110.719 A-121.1664 F2789.043
G1 X112.2 A-121.0527 F2838.5116
G1 X113.721 A-120.8893 F2753.7562
G1 X115.185 A-120.6874 F2847.2875
G1 X116.682 A-120.433 F2767.1744
G1 X118.148 A-120.1376 F2804.9931
G1 X119.607 A-119.7949 F2793.3272
G1 X121.034 A-119.4138 F2828.1889
G1 X122.483 A-118.9777 F2753.6437
G1 X123.867 A-118.5135 F2846.7951
G1 X125.256 A-117.9978 F2796.3453
G1 X126.645 A-117.4323 F2754.0377
G1 X127.988 A-116.8336 F2799.141
G1 X129.285 A-116.2051 F2845.6603
G1 X130.598 A-115.5155 F2754.8826
G1 X131.844 A-114.8083 F2840.6098
G1 X133.078 A-114.054 F2802.4406
G1 X134.301 A-113.2472 F2754.1972
G1 X135.465 A-112.4238 F2818.1848
G1 X136.593 A-111.5673 F2824.1587
G1 X137.713 A-110.6538 F2754.9208
G1 X138.763 A-109.7361 F2841.8958
G1 X139.808 A-108.7571 F2754.9208
G1 X140.788 A-107.7711 F2824.1587
G1 X141.73 A-106.7537 F2818.1848
G1 X142.653 A-105.6847 F2754.1972
G1 X143.516 A-104.6061 F2802.4406
G1 X144.325 A-103.517 F2840.6098
G1 X145.114 A-102.3693 F2754.8826
G1 X145.833 A-101.2357 F2845.6603
G1 X146.518 A-100.0618 F2799.141
G1 X147.165 A-98.8477 F2754.0377
G1 X147.755 A-97.6336 F2796.3453
G1 X148.286 A-96.4239 F2846.7951
G1 X148.785 A-95.1573 F2753.6437
G1 X149.219 A-93.9179 F2845.7185
G1 X149.61 A-92.6452 F2799.1761
G1 X149.949 A-91.3603 F2797.3281
G1 X150.242 A-90.0448 F2752.3127
G1 X150.473 A-88.7652 F2847.2875
G1 X150.66 A-87.4357 F2753.7562
G1 X150.79 A-86.1438 F2844.2289
G1 X150.869 A-84.8283 F2800.1317
G1 X150.896 A-83.5094 F2796.1065
G1 X150.869 A-82.1781 F2770.4117
G1 X150.79 A-80.8574 F2789.043
G1 X150.66 A-79.5629 F2838.5116
G1 X150.473 A-78.2334 F2753.7562
G1 X150.242 A-76.9529 F2845.3912
G1 X149.951 A-75.6453 F2768.9567
G1 X149.616 A-74.3744 F2828.2423
G1 X149.221 A-73.0886 F2770.6457
G1 X148.785 A-71.8413 F2828.1889
G1 X148.286 A-70.5748 F2753.6437
G1 X147.755 A-69.365 F2846.7951
G1 X147.165 A-68.1509 F2796.3453
G1 X146.52 A-66.9412 F2763.7357
G1 X145.833 A-65.763 F2789.2191
G1 X145.114 A-64.6284 F2843.9828
G1 X144.338 A-63.4982 F2798.4325
G1 X143.516 A-62.3925 F2797.274
G1 X142.639 A-61.2964 F2757.7311
G1 X141.745 A-60.2607 F2842.8881
G1 X140.781 A-59.2205 F2755.525
G1 X139.808 A-58.2415 F2844.3937
G1 X138.763 A-57.2626 F2754.9208
G1 X137.713 A-56.3448 F2841.8958
M05 $0
(contorno 2/5 dxf-ring)
G0 X362.3115 A-41.5792
M03 $0 S1
G1 X362.4512 A-41.215 F9604.6408
G1 X362.5239 A-40.8363 F9604.6408
G1 X362.5279 A-40.4523 F9604.6408
G1 X362.4632 A-40.0724 F9604.6408
G1 X362.3313 A-39.7061 F9604.6408
G1 X362.1355 A-39.3623 F9604.6408
G1 X361.8805 A-39.0495 F9604.6408
G1 X361.5727 A-38.7755 F9604.6408
G1 X361.2196 A-38.5469 F9604.6408
G1 X360.83 A-38.3694 F9604.6408
G1 X359.609 A-37.9157 F3180.7622
G1 X358.326 A-37.4857 F3071.0993
G1 X357.045 A-37.1002 F3114.8857
G1 X355.769 A-36.7593 F3162.7785
G1 X354.462 A-36.4525 F3118.2786
G1 X353.147 A-36.1877 F3127.1839
G1 X351.806 A-35.9595 F3088.9427
G1 X350.494 A-35.7786 F3177.1623
G1 X349.129 A-35.6318 F3068.4223
G1 X347.804 A-35.5304 F3172.77
G1 X346.449 A-35.4683 F3110.1245
G1 X345.095 A-35.4473 F3116.2018
G1 X343.74 A-35.4683 F3113.9027
G1 X342.385 A-35.5304 F3110.1245
G1 X341.06 A-35.6318 F3172.77
G1 X339.694 A-35.7786 F3066.2095
G1 X338.384 A-35.9595 F3181.8949
G1 X337.042 A-36.1877 F3086.7249
G1 X335.729 A-36.4525 F3131.7067
G1 X334.421 A-36.7593 F3116.0548
G1 X333.144 A-37.1002 F3160.5132
G1 X331.864 A-37.4857 F3117.0611
G1 X330.581 A-37.9157 F3071.0993
G1 X329.36 A-38.3694 F3180.7622
G1 X328.113 A-38.8772 F3067.5134
G1 X326.909 A-39.4139 F3122.4055
G1 X325.74 A-39.9803 F3157.2952
G1 X324.582 A-40.5878 F3124.6498
G1 X323.436 A-41.239 F3087.3394
G1 X322.349 A-41.9041 F3180.3213
G1 X321.25 A-42.6279 F3066.8532
G1 X320.209 A-43.3647 F3150.368
G1 X319.194 A-44.1365 F3136.7758
G1 X318.208 A-44.9398 F3130.8628
G1 X317.238 A-45.7877 F3076.279
G1 X316.317 A-46.6513 F3124.3106
G1 X315.446 A-47.528 F3176.7509
G1 X314.58 A-48.4624 F3067.3943
G1 X313.767 A-49.4046 F3125.4518
G1 X313.006 A-50.3547 F3180.3213
G1 X312.27 A-51.3459 F3121.517
G1 X311.561 A-52.3765 F3067.3903
G1 X310.918 A-53.3913 F3179.7074
G1 X310.294 A-54.462 F3069.5975
G1 X309.733 A-55.5127 F3181.374
G1 X309.196 A-56.6201 F3066.6321
G1 X308.72 A-57.7031 F3179.4123
G1 X308.272 A-58.8403 F3066.918
G1 X307.882 A-59.9565 F3160.5132
G1 X307.533 A-61.0936 F3132.8939
G1 X307.224 A-62.2623 F3075.2578
G1 X306.967 A-63.4204 F3126.6345
G1 X306.76 A-64.5672 F3177.1623
G1 X306.592 A-65.7603 F3068.4223
G1 X306.476 A-66.9185 F3172.77
G1 X306.405 A-68.1029 F3110.1245
G1 X306.381 A-69.2759 F3144.0576
G1 X306.405 A-70.4786 F3066.3941
G1 X306.476 A-71.6577 F3123.9194
G1 X306.592 A-72.8133 F3179.915
G1 X306.76 A-74.0073 F3066.2095
G1 X306.967 A-75.1523 F3181.8949
G1 X307.224 A-76.3113 F3124.362
G1 X307.534 A-77.4826 F3068.2187
G1 X307.884 A-78.6241 F3121.1037
G1 X308.272 A-79.7333 F3180.1272
G1 X308.72 A-80.8705 F3066.918
G1 X309.204 A-81.9727 F3124.3175
G1 X309.722 A-83.04 F3181.6995
G1 X310.294 A-84.1107 F3121.3829
G1 X310.918 A-85.1823 F3067.6091
G1 X311.561 A-86.1963 F3181.8044
G1 X312.27 A-87.2268 F3067.3903
G1 X313.006 A-88.218 F3121.517
G1 X313.767 A-89.1681 F3180.3213
G1 X314.58 A-90.1113 F3123.6044
G1 X315.446 A-91.0457 F3067.3943
G1 X316.317 A-91.9215 F3178.5571
G1 X317.238 A-92.7851 F3124.3106
G1 X318.194 A-93.6207 F3121.3291
G1 X319.2 A-94.4415 F3066.5519
G1 X320.201 A-95.2019 F3181.9383
G1 X321.27 A-95.9588 F3067.3943
G1 X322.349 A-96.6695 F3123.6044
G1 X323.436 A-97.3346 F3180.3213
G1 X324.57 A-97.978 F3121.517
G1 X325.749 A-98.5977 F3067.3903
G1 X326.909 A-99.1597 F3181.8044
G1 X328.135 A-99.7051 F3067.6091
G1 X329.354 A-100.2025 F3136.9422
G1 X330.581 A-100.6579 F3165.7193
G1 X330.581 A-100.657 F4220000
G1 X331.866 A-101.0879 F3066.1334
G1 X333.143 A-101.4725 F3124.3586
G1 X334.421 A-101.8134 F3158.2509
G1 X335.722 A-102.1185 F3132.8939
G1 X337.054 A-102.3877 F3086.7224
G1 X338.374 A-102.6115 F3138.4913
G1 X339.694 A-102.795 F3157.2643
G1 X341.06 A-102.941 F3066.4807
G1 X342.385 A-103.0424 F3172.77
G1 X343.74 A-103.1044 F3110.1245
G1 X345.095 A-103.1254 F3113.9027
G1 X346.449 A-103.1044 F3116.2018
G1 X347.804 A-103.0424 F3110.1245
G1 X349.13 A-102.941 F3170.3955
G1 X350.495 A-102.795 F3068.6941
G1 X351.816 A-102.6115 F3154.9332
G1 X353.135 A-102.3877 F3140.7844
G1 X354.468 A-102.1185 F3084.5242
G1 X355.769 A-101.8134 F3132.8939
G1 X357.046 A-101.4725 F3160.5132
G1 X358.324 A-101.0879 F3122.173
G1 X359.609 A-100.657 F3066.1334
G1 X359.609 A-100.6579 F4220000
G1 X360.836 A-100.2025 F3165.7193
G1 X362.055 A-99.7051 F3136.9422
G1 X363.281 A-99.1597 F3067.6091
G1 X364.441 A-98.5977 F3181.8044
G1 X365.62 A-97.978 F3067.3903
G1 X366.754 A-97.3346 F3121.517
G1 X367.841 A-96.6695 F3180.3213
G1 X368.939 A-95.9457 F3068.634
G1 X369.981 A-95.208 F3147.0637
G1 X370.99 A-94.4415 F3156.6371
G1 X371.996 A-93.6207 F3066.5519
G1 X372.952 A-92.7851 F3121.3291
G1 X373.873 A-91.9215 F3124.3106
G1 X374.751 A-91.0387 F3153.3095
G1 X375.594 A-90.1288 F3150.368
G1 X376.422 A-89.1681 F3066.8532
G1 X377.183 A-88.218 F3180.3213
G1 X377.933 A-87.2093 F3066.1804
G1 X378.628 A-86.1972 F3124.6498
G1 X379.271 A-85.1823 F3179.7074
G1 X379.885 A-84.13 F3122.4055
G1 X380.466 A-83.04 F3067.5134
G1 X380.993 A-81.9561 F3132.0939
G1 X380.995 A-81.9535 F1170417.414
G1 X380.995 A-81.9526 F4220000
G1 X381.47 A-80.8705 F3182.5101
G1 X381.918 A-79.7333 F3066.918
G1 X382.306 A-78.6241 F3180.1272
G1 X382.656 A-77.4835 F3123.3349
G1 X382.96 A-76.3323 F3122.1551
G1 X383.223 A-75.1514 F3066.0557
G1 X383.43 A-74.0073 F3184.2664
G1 X383.598 A-72.8133 F3066.2095
G1 X383.714 A-71.6577 F3179.915
G1 X383.785 A-70.4786 F3123.9194
G1 X383.809 A-69.2969 F3120.8101
G1 X383.785 A-68.1029 F3088.8352
G1 X383.714 A-66.9185 F3110.1245
G1 X383.598 A-65.7603 F3172.77
G1 X383.43 A-64.5672 F3068.4223
G1 X383.223 A-63.4213 F3179.5269
G1 X382.962 A-62.2483 F3086.7249
G1 X382.662 A-61.1103 F3158.4101
G1 X382.308 A-59.9565 F3087.8559
G1 X381.918 A-58.8403 F3160.5132
G1 X381.47 A-57.7031 F3066.918
G1 X380.993 A-56.6175 F3171.8629
G1 X380.466 A-55.5328 F3129.9558
G1 X379.887 A-54.4472 F3079.5496
G1 X379.271 A-53.3913 F3112.1079
G1 X378.628 A-52.3756 F3177.6126
G1 X377.933 A-51.3634 F3124.6498
G1 X377.183 A-50.3547 F3066.1804
G1 X376.422 A-49.4046 F3180.3213
G1 X375.599 A-48.451 F3087.9436
G1 X374.751 A-47.535 F3130.302
G1 X373.873 A-46.6513 F3151.5319
G1 X372.952 A-45.7877 F3124.3106
G1 X371.982 A-44.9398 F3076.279
G1 X370.996 A-44.1365 F3130.8628
G1 X369.981 A-43.3647 F3136.7758
G1 X368.939 A-42.6279 F3148.541
G1 X367.841 A-41.9041 F3068.634
G1 X366.754 A-41.239 F3180.3213
G1 X365.608 A-40.5878 F3087.3394
G1 X364.45 A-39.9803 F3124.6498
G1 X363.281 A-39.4139 F3157.2952
G1 X362.077 A-38.8772 F3122.4055
G1 X360.83 A-38.3694 F3067.5134
M05 $0
(contorno 3/5 dxf-ring)
G0 X356.7791 A129.192
M03 $0 S1
G1 X356.9184 A129.5562 F9604.6408
G1 X356.9909 A129.935 F9604.6408
G1 X356.9946 A130.319 F9604.6408
G1 X356.9296 A130.6989 F9604.6408
G1 X356.7974 A131.0651 F9604.6408
G1 X356.6012 A131.4088 F9604.6408
G1 X356.346 A131.7214 F9604.6408
G1 X356.038 A131.9952 F9604.6408
G1 X355.6848 A132.2236 F9604.6408
G1 X355.295 A132.4009 F9604.6408
G1 X354.239 A132.7925 F3678.8401
G1 X353.141 A133.1605 F3588.6053
G1 X352.065 A133.4847 F3707.7262
G1 X350.945 A133.7837 F3603.5959
G1 X349.841 A134.0424 F3692.0625
G1 X348.719 A134.2688 F3664.7674
G1 X347.572 A134.4637 F3611.5394
G1 X346.455 A134.6175 F3731.9349
G1 X345.286 A134.7434 F3582.8426
G1 X344.157 A134.8299 F3723.533
G1 X343.002 A134.8824 F3648.7597
G1 X341.843 A134.9007 F3640.4724
G1 X340.684 A134.8824 F3640.4724
G1 X339.529 A134.8299 F3648.7597
G1 X338.4 A134.7434 F3723.533
G1 X337.23 A134.6175 F3579.826
G1 X336.113 A134.4637 F3731.9349
G1 X334.966 A134.2688 F3611.5394
G1 X333.844 A134.0424 F3664.7674
G1 X332.741 A133.7837 F3695.185
G1 X331.621 A133.4847 F3603.5959
G1 X330.545 A133.1605 F3707.7262
G1 X329.447 A132.7925 F3588.6053
G1 X328.391 A132.4009 F3678.8401
G1 X327.361 A131.9805 F3712.251
G1 X326.311 A131.5128 F3581
G1 X325.323 A131.0347 F3736.7776
G1 X324.313 A130.5041 F3581.227
G1 X323.365 A129.9657 F3732.6721
G1 X322.399 A129.3748 F3579.1873
G1 X321.498 A128.7813 F3740.4616
G1 X320.582 A128.1328 F3579.8466
G1 X319.723 A127.4807 F3709.1868
G1 X318.882 A126.7954 F3670.3466
G1 X318.052 A126.0691 F3593.0043
G1 X317.265 A125.3313 F3656.8609
G1 X316.517 A124.5788 F3700.011
G1 X315.798 A123.8017 F3690.862
G1 X315.088 A122.9792 F3579.8969
G1 X314.426 A122.1532 F3657.4596
G1 X313.812 A121.3246 F3736.2693
G1 X313.205 A120.4418 F3581.227
G1 X312.646 A119.5607 F3661.2073
G1 X312.122 A118.6613 F3654.5125
G1 X311.634 A117.747 F3656.0991
G1 X311.193 A116.8379 F3735.7115
G1 X311.194 A116.8379 F4219999.9999
G1 X310.772 A115.8765 F3581.8268
G1 X310.396 A114.9228 F3656.9268
G1 X310.063 A113.971 F3705.7343
G1 X309.76 A112.9833 F3607.0893
G1 X309.504 A112.013 F3704.5547
G1 X309.281 A111.0096 F3608.5079
G1 X309.105 A110.0341 F3735.1978
G1 X308.961 A109.0123 F3582.8426
G1 X308.863 A108.0272 F3730.3774
G1 X308.802 A107.0142 F3636.0373
G1 X308.781 A106.0134 F3684.9698
G1 X308.802 A104.9828 F3578.7369
G1 X308.863 A103.9768 F3661.239
G1 X308.961 A102.9934 F3736.9592
G1 X309.105 A101.9708 F3579.826
G1 X309.281 A100.9953 F3735.1978
G1 X309.506 A99.984 F3580.2924
G1 X309.76 A99.0216 F3734.7809
G1 X310.065 A98.0269 F3581.8461
G1 X310.396 A97.0829 F3735.8872
G1 X310.772 A96.1293 F3656.9268
G1 X311.194 A95.1669 F3578.9904
G1 X311.193 A95.1669 F4219999.9999
G1 X311.634 A94.2588 F3738.7584
G1 X312.122 A93.3445 F3656.0991
G1 X312.657 A92.4267 F3581
G1 X313.205 A91.5631 F3735.1744
G1 X313.812 A90.6803 F3581.227
G1 X314.427 A89.8517 F3734.4709
G1 X315.088 A89.0257 F3659.2784
G1 X315.798 A88.2032 F3579.8969
G1 X316.517 A87.4261 F3690.862
G1 X317.265 A86.6735 F3700.011
G1 X318.052 A85.9358 F3656.8609
G1 X318.885 A85.2077 F3582.2216
G1 X319.729 A84.5198 F3656.8609
G1 X320.582 A83.8721 F3734.8204
G1 X321.498 A83.2235 F3579.8466
G1 X322.399 A82.63 F3740.4616
G1 X323.365 A82.0392 F3579.1873
G1 X324.325 A81.4937 F3685.6584
G1 X325.302 A80.9815 F3704.1422
G1 X326.311 A80.492 F3656.8938
G1 X327.361 A80.0244 F3581
G1 X328.401 A79.6005 F3677.4639
G1 X329.455 A79.2098 F3686.0113
G1 X330.524 A78.8505 F3684.6664
G1 X331.638 A78.5158 F3582.3417
G1 X332.727 A78.2247 F3705.7343
G1 X333.844 A77.9625 F3648.6724
G1 X334.966 A77.7361 F3664.7674
G1 X336.114 A77.5412 F3608.5079
G1 X337.23 A77.3873 F3735.1978
G1 X338.4 A77.2615 F3579.826
G1 X339.527 A77.1758 F3730.3774
G1 X340.686 A77.1225 F3636.0373
G1 X341.843 A77.1041 F3646.7632
G1 X343 A77.1225 F3646.7632
G1 X344.159 A77.1758 F3636.0373
G1 X345.286 A77.2615 F3730.3774
G1 X346.455 A77.3873 F3582.8426
G1 X347.571 A77.5412 F3735.1978
G1 X348.719 A77.7361 F3608.5079
G1 X349.841 A77.9625 F3664.7674
G1 X350.959 A78.2247 F3645.6281
G1 X352.048 A78.5158 F3705.7343
G1 X353.162 A78.8505 F3582.3417
G1 X354.231 A79.2098 F3684.6664
G1 X355.285 A79.6005 F3686.0113
G1 X356.325 A80.0244 F3677.4639
G1 X357.375 A80.492 F3581
G1 X358.383 A80.9815 F3659.6664
G1 X359.361 A81.4937 F3701.3557
G1 X360.321 A82.0392 F3685.6584
G1 X361.285 A82.6292 F3585.9147
G1 X362.187 A83.2235 F3735.8242
G1 X363.103 A83.8721 F3579.8466
G1 X363.956 A84.5198 F3734.8204
G1 X364.817 A85.2226 F3582.2745
G1 X365.634 A85.9358 F3654.6112
G1 X366.42 A86.6735 F3659.0225
G1 X367.161 A87.4191 F3734.8204
G1 X367.903 A88.2198 F3579.8466
G1 X368.582 A89.0073 F3740.4616
G1 X369.258 A89.8517 F3579.1873
G1 X369.874 A90.6803 F3732.6721
G1 X370.481 A91.5631 F3581.227
G1 X371.028 A92.4267 F3736.7776
G1 X371.563 A93.3445 F3581
G1 X372.041 A94.2395 F3734.2793
G1 X372.492 A95.1669 F3660.4125
G1 X372.914 A96.1293 F3578.9904
G1 X373.282 A97.0619 F3738.8889
G1 X373.626 A98.047 F3581.3353
G1 X373.919 A99.0006 F3735.6398
G1 X374.179 A99.984 F3654.7757
G1 X374.404 A100.9953 F3580.2924
G1 X374.581 A101.9699 F3737.9486
G1 X374.724 A102.9926 F3580.1958
G1 X374.823 A103.9768 F3733.3776
G1 X374.884 A104.9828 F3661.239
G1 X374.904 A105.9924 F3653.132
G1 X374.884 A107.0142 F3609.3948
G1 X374.823 A108.0264 F3639.1686
G1 X374.724 A109.0132 F3723.533
G1 X374.581 A110.0341 F3586.2358
G1 X374.404 A111.0096 F3734.6815
G1 X374.181 A112.013 F3608.5079
G1 X373.925 A112.9833 F3704.5547
G1 X373.626 A113.9587 F3652.5408
G1 X373.284 A114.9377 F3603.5959
G1 X372.914 A115.8765 F3714.9615
G1 X372.492 A116.8379 F3581.8268
G1 X372.044 A117.761 F3678.8401
G1 X371.563 A118.6613 F3712.251
G1 X371.028 A119.579 F3581
G1 X370.481 A120.4418 F3739.6743
G1 X369.874 A121.3246 F3581.227
G1 X369.259 A122.1532 F3734.4709
G1 X368.587 A122.9914 F3603.7259
G1 X367.903 A123.7851 F3712.1663
G1 X367.161 A124.5858 F3579.8466
G1 X366.42 A125.3313 F3734.8204
G1 X365.634 A126.0691 F3659.0225
G1 X364.803 A126.7954 F3590.8431
G1 X363.963 A127.4807 F3672.6824
G1 X363.103 A128.1328 F3706.7263
G1 X362.187 A128.7813 F3579.8466
G1 X361.285 A129.3757 F3735.8242
G1 X360.327 A129.9622 F3608.0173
G1 X359.361 A130.5111 F3662.5928
G1 X358.375 A131.0286 F3669.3433
G1 X357.375 A131.5128 F3691.3788
G1 X356.325 A131.9805 F3581
G1 X355.295 A132.4009 F3712.251
M05 $0
(contorno 4/5 dxf-ring)
G0 X123.0404 A136.17
M03 $0 S1
G1 X123.1799 A136.5342 F9604.6408
G1 X123.2525 A136.9129 F9604.6408
G1 X123.2565 A137.297 F9604.6408
G1 X123.1917 A137.6768 F9604.6408
G1 X123.0596 A138.0431 F9604.6408
G1 X122.8637 A138.3869 F9604.6408
G1 X122.6087 A138.6996 F9604.6408
G1 X122.3008 A138.9736 F9604.6408
G1 X121.9477 A139.2021 F9604.6408
G1 X121.558 A139.3795 F9604.6408
G1 X120.308 A139.8437 F3107.2608
G1 X120.308 A139.8428 F4220000
G1 X119.002 A140.2807 F3016.875
G1 X117.699 A140.6732 F3061.9852
G1 X116.407 A141.0184 F3123.5368
G1 X115.072 A141.3313 F3053.1739
G1 X113.717 A141.6049 F3034.4843
G1 X112.369 A141.8339 F3073.0571
G1 X111.028 A142.0192 F3108.3025
G1 X109.637 A142.1687 F3011.1211
G1 X108.287 A142.2718 F3114.0528
G1 X106.908 A142.3348 F3056.0259
G1 X105.528 A142.3566 F3057.4693
G1 X104.149 A142.3348 F3059.6858
G1 X102.77 A142.2718 F3056.0259
G1 X101.419 A142.1687 F3111.7653
G1 X100.029 A142.0192 F3013.2551
G1 X98.688 A141.8339 F3108.3025
G1 X97.34 A141.6049 F3073.0571
G1 X95.985 A141.3313 F3034.4843
G1 X94.65 A141.0184 F3053.1739
G1 X93.358 A140.6732 F3123.5368
G1 X92.055 A140.2807 F3061.9852
G1 X90.749 A139.8428 F3016.875
G1 X90.749 A139.8437 F4220000
G1 X89.499 A139.3795 F3107.2608
G1 X88.258 A138.8734 F3081.5877
G1 X87.01 A138.3175 F3012.749
G1 X85.819 A137.7406 F3099.1893
G1 X84.639 A137.1218 F3066.6272
G1 X83.473 A136.4592 F3034.3854
G1 X82.366 A135.7818 F3122.8654
G1 X81.267 A135.0581 F3066.8532
G1 X80.179 A134.288 F3014.3588
G1 X79.152 A133.5083 F3102.2762
G1 X78.149 A132.6902 F3076.0297
G1 X77.161 A131.8275 F3021.7623
G1 X76.223 A130.9473 F3066.4418
G1 X75.336 A130.0549 F3120.1873
G1 X74.455 A129.1039 F3014.3588
G1 X73.627 A128.1433 F3066.8532
G1 X72.852 A127.1757 F3122.8654
G1 X72.089 A126.1495 F3013.9436
G1 X71.381 A125.1181 F3066.6272
G1 X70.726 A124.084 F3120.7811
G1 X70.09 A122.9941 F3014.6664
G1 X69.508 A121.9032 F3064.5533
G1 X68.977 A120.8089 F3103.0544
G1 X68.487 A119.6935 F3087.3931
G1 X68.031 A118.5354 F3011.5512
G1 X67.636 A117.4052 F3121.3274
G1 X67.278 A116.2392 F3055.309
G1 X66.964 A115.0513 F3025.5156
G1 X66.702 A113.8713 F3068.6697
G1 X66.491 A112.7044 F3122.2909
G1 X66.32 A111.4895 F3013.2551
G1 X66.202 A110.3086 F3111.7653
G1 X66.13 A109.105 F3060.4525
G1 X66.105 A107.9084 F3082.0281
G1 X66.13 A106.6838 F3011.6547
G1 X66.202 A105.4837 F3069.3442
G1 X66.32 A104.3063 F3120.9356
G1 X66.491 A103.0913 F3013.2551
G1 X66.702 A101.9244 F3122.2909
G1 X66.969 A100.7234 F3014.928
G1 X67.273 A99.5714 F3119.9059
G1 X67.636 A98.3888 F3012.4588
G1 X68.031 A97.2595 F3123.5368
G1 X68.479 A96.1223 F3066.918
G1 X68.981 A94.979 F3012.0828
G1 X68.98 A94.979 F4220000
G1 X69.508 A93.8917 F3122.6551
G1 X70.09 A92.8017 F3066.5714
G1 X70.726 A91.7108 F3012.749
G1 X71.381 A90.6777 F3122.8013
G1 X72.102 A89.6288 F3014.408
G1 X72.852 A88.6192 F3064.3133
G1 X73.627 A87.6516 F3122.8654
G1 X74.47 A86.6744 F3013.8452
G1 X75.329 A85.747 F3091.2624
G1 X76.223 A84.8476 F3095.8549
G1 X77.161 A83.9683 F3068.0728
G1 X78.135 A83.1178 F3065.2185
G1 X79.151 A82.2883 F3035.3766
G1 X80.19 A81.4999 F3067.0638
G1 X81.267 A80.7368 F3043.8918
G1 X82.347 A80.0262 F3121.7587
G1 X83.487 A79.3278 F3031.3456
G1 X84.639 A78.6731 F3071.1383
G1 X85.819 A78.0542 F3066.6272
G1 X87.01 A77.4774 F3099.1893
G1 X88.236 A76.9311 F3066.5973
G1 X89.505 A76.4145 F3014.561
G1 X90.749 A75.9521 F3121.7518
G1 X92.057 A75.5133 F3012.0828
G1 X93.358 A75.1217 F3066.918
G1 X94.65 A74.7765 F3123.5368
G1 X95.984 A74.4644 F3055.8817
G1 X97.34 A74.1899 F3031.8689
G1 X98.688 A73.9609 F3073.0571
G1 X100.029 A73.7756 F3108.3025
G1 X101.419 A73.6262 F3013.2551
G1 X102.77 A73.523 F3111.7653
G1 X104.149 A73.4601 F3056.0259
G1 X105.528 A73.4391 F3059.7252
G1 X106.908 A73.4601 F3057.5087
G1 X108.287 A73.523 F3056.0259
G1 X109.637 A73.6262 F3114.0528
G1 X111.028 A73.7756 F3011.1211
G1 X112.369 A73.9609 F3108.3025
G1 X113.717 A74.1899 F3073.0571
G1 X115.073 A74.4644 F3031.8689
G1 X116.407 A74.7765 F3055.8817
G1 X117.699 A75.1217 F3123.5368
G1 X119 A75.5133 F3066.918
G1 X120.308 A75.9521 F3012.0828
G1 X121.552 A76.4145 F3121.7518
G1 X122.821 A76.9311 F3014.561
G1 X124.047 A77.4774 F3066.5973
G1 X125.229 A78.0499 F3122.8013
G1 X126.429 A78.6801 F3014.408
G1 X127.57 A79.3278 F3101.7993
G1 X128.71 A80.0262 F3031.3456
G1 X129.79 A80.7368 F3121.7587
G1 X130.867 A81.4999 F3043.8918
G1 X131.906 A82.2883 F3067.0638
G1 X132.922 A83.1178 F3035.3766
G1 X133.896 A83.9683 F3065.2185
G1 X134.817 A84.8318 F3124.3106
G1 X135.735 A85.7557 F3014.3065
G1 X136.602 A86.6919 F3062.5335
G1 X137.43 A87.6516 F3068.634
G1 X138.205 A88.6192 F3122.8654
G1 X138.955 A89.6288 F3064.3133
G1 X139.676 A90.6777 F3014.408
G1 X140.331 A91.7108 F3122.8013
G1 X140.967 A92.8017 F3012.749
G1 X141.549 A93.8917 F3066.5714
G1 X142.077 A94.979 F3122.6551
G1 X142.076 A94.979 F4220000
G1 X142.578 A96.1223 F3012.0828
G1 X143.026 A97.2595 F3066.918
G1 X143.421 A98.3888 F3123.5368
G1 X143.778 A99.5504 F3066.6062
G1 X144.088 A100.7234 F3063.8779
G1 X144.355 A101.9244 F3014.928
G1 X144.566 A103.0913 F3122.2909
G1 X144.737 A104.3063 F3013.2551
G1 X144.855 A105.4837 F3120.9356
G1 X144.927 A106.6838 F3069.3442
G1 X144.952 A107.8874 F3064.1283
G1 X144.927 A109.105 F3028.9451
G1 X144.855 A110.3086 F3060.4525
G1 X144.737 A111.4895 F3111.7653
G1 X144.566 A112.7044 F3013.2551
G1 X144.355 A113.8713 F3122.2909
G1 X144.093 A115.0513 F3068.6697
G1 X143.779 A116.2392 F3025.5156
G1 X143.421 A117.4052 F3055.309
G1 X143.026 A118.5354 F3121.3274
G1 X142.57 A119.6935 F3011.5512
G1 X142.08 A120.8089 F3087.3931
G1 X141.549 A121.9032 F3103.0544
G1 X140.967 A122.9941 F3064.5533
G1 X140.331 A124.084 F3014.6664
G1 X139.676 A125.1181 F3120.7811
G1 X138.968 A126.1495 F3066.6272
G1 X138.205 A127.1757 F3013.9436
G1 X137.43 A128.1433 F3122.8654
G1 X136.602 A129.1039 F3066.8532
G1 X135.735 A130.0391 F3064.2616
G1 X134.817 A130.963 F3014.3065
G1 X133.896 A131.8275 F3122.6192
G1 X132.908 A132.6902 F3021.7623
G1 X131.905 A133.5083 F3076.0297
G1 X130.878 A134.288 F3102.2762
G1 X129.79 A135.0581 F3014.3588
G1 X128.691 A135.7818 F3066.8532
G1 X127.584 A136.4592 F3122.8654
G1 X126.429 A137.1148 F3064.3133
G1 X125.229 A137.745 F3014.408
G1 X124.047 A138.3175 F3122.8013
G1 X122.799 A138.8734 F3012.749
G1 X121.558 A139.3795 F3081.5877
M05 $0
(contorno 5/5 dxf-ring)
G0 X483.396 A177.032
M03 $0 S1
G1 X483.3615 A177.4148 F9604.6408
G1 X483.259 A177.7883 F9604.6408
G1 X483.0908 A178.1431 F9604.6408
G1 X482.8612 A178.4705 F9604.6408
G1 X482.5759 A178.7626 F9604.6408
G1 X482.2418 A179.012 F9604.6408
G1 X481.8672 A179.2126 F9604.6408
G1 X481.4612 A179.3596 F9604.6408
G1 X481.034 A179.4493 F9604.6408
G1 X480.596 A179.4794 F9604.6408
G1 X10 A179.4794 F8.9674
G1 X9.598 A179.5904 F10009.8695
G1 X9.379 A179.8089 F12697.2002
G1 X9.3 A180.0913 F12690.9402
G1 X9.3 A179.9087 F10.2513
G1 X9.427 A180.2601 F10009.8695
G1 X9.677 A180.4515 F12697.2002
G1 X10 A180.5206 F12690.9402
G1 X480.596 A180.5206 F8.9674
G1 X480.998 A180.4096 F10009.8695
G1 X481.217 A180.1911 F12697.2002
G1 X481.296 A179.9087 F12690.9402
G1 X481.296 A180.0913 F10.2513
G1 X481.169 A179.7399 F10009.8695
G1 X480.919 A179.5485 F12697.2002
G1 X480.596 A179.4794 F12690.9402
M05 $0
M05 $0
G94
G0 X0 A0
M2
