; plate-demo.step — generato da CAD/CAM visualLGE (post GRBL (laser))
; contorni: 7, feed 3000 mm/min, S800, pierce 0.5s
G21
G90
G17
; contorno 1/7 foro 1 (profondita 1)
G0 X13.561 Y13.611
M3 S800
G4 P0.5
G1 X12.123 Y12.221 F3000
G1 X11.936 Y12.429
G1 X11.764 Y12.649
G1 X11.608 Y12.88
G1 X11.468 Y13.122
G1 X11.346 Y13.373
G1 X11.241 Y13.632
G1 X11.155 Y13.897
G1 X11.087 Y14.168
G1 X11.039 Y14.443
G1 X11.01 Y14.721
G1 X11 Y15
G1 X11.01 Y15.279
G1 X11.039 Y15.557
G1 X11.087 Y15.832
G1 X11.155 Y16.103
G1 X11.241 Y16.368
G1 X11.346 Y16.627
G1 X11.468 Y16.878
G1 X11.608 Y17.12
G1 X11.764 Y17.351
G1 X11.936 Y17.571
G1 X12.123 Y17.779
G1 X12.323 Y17.973
G1 X12.537 Y18.152
G1 X12.763 Y18.316
G1 X13 Y18.464
G1 X13.247 Y18.595
G1 X13.502 Y18.709
G1 X13.764 Y18.804
G1 X14.032 Y18.881
G1 X14.305 Y18.939
G1 X14.582 Y18.978
G1 X14.86 Y18.998
G1 X15.14 Y18.998
G1 X15.418 Y18.978
G1 X15.695 Y18.939
G1 X15.968 Y18.881
G1 X16.236 Y18.804
G1 X16.498 Y18.709
G1 X16.753 Y18.595
G1 X17 Y18.464
G1 X17.237 Y18.316
G1 X17.463 Y18.152
G1 X17.677 Y17.973
G1 X17.877 Y17.779
G1 X18.064 Y17.571
G1 X18.236 Y17.351
G1 X18.392 Y17.12
G1 X18.532 Y16.878
G1 X18.654 Y16.627
G1 X18.759 Y16.368
G1 X18.845 Y16.103
G1 X18.913 Y15.832
G1 X18.961 Y15.557
G1 X18.99 Y15.279
G1 X19 Y15
G1 X18.99 Y14.721
G1 X18.961 Y14.443
G1 X18.913 Y14.168
G1 X18.845 Y13.897
G1 X18.759 Y13.632
G1 X18.654 Y13.373
G1 X18.532 Y13.122
G1 X18.392 Y12.88
G1 X18.236 Y12.649
G1 X18.064 Y12.429
G1 X17.877 Y12.221
G1 X17.677 Y12.027
G1 X17.463 Y11.848
G1 X17.237 Y11.684
G1 X17 Y11.536
G1 X16.753 Y11.405
G1 X16.498 Y11.291
G1 X16.236 Y11.196
G1 X15.968 Y11.119
G1 X15.695 Y11.061
G1 X15.418 Y11.022
G1 X15.14 Y11.002
G1 X14.86 Y11.002
G1 X14.582 Y11.022
G1 X14.305 Y11.061
G1 X14.032 Y11.119
G1 X13.764 Y11.196
G1 X13.502 Y11.291
G1 X13.247 Y11.405
G1 X13 Y11.536
G1 X12.763 Y11.684
G1 X12.537 Y11.848
G1 X12.323 Y12.027
G1 X12.123 Y12.221
M5
; contorno 2/7 foro 2 (profondita 1)
G0 X42.003 Y13.843
M3 S800
G4 P0.5
G1 X40.003 Y13.826 F3000
G1 X40.003 Y14.174
G1 X40.027 Y14.523
G1 X40.076 Y14.868
G1 X40.149 Y15.21
G1 X40.245 Y15.545
G1 X40.364 Y15.873
G1 X40.506 Y16.192
G1 X40.67 Y16.5
G1 X40.855 Y16.796
G1 X41.06 Y17.078
G1 X41.284 Y17.346
G1 X41.527 Y17.597
G1 X41.786 Y17.83
G1 X42.061 Y18.045
G1 X42.35 Y18.24
G1 X42.653 Y18.415
G1 X42.966 Y18.568
G1 X43.29 Y18.698
G1 X43.622 Y18.806
G1 X43.96 Y18.891
G1 X44.304 Y18.951
G1 X44.651 Y18.988
G1 X45 Y19
G1 X75 Y19
G1 X75.341 Y18.988
G1 X75.681 Y18.953
G1 X76.017 Y18.895
G1 X76.349 Y18.815
G1 X76.674 Y18.711
G1 X76.992 Y18.586
G1 X77.3 Y18.439
G1 X77.598 Y18.272
G1 X77.883 Y18.085
G1 X78.155 Y17.879
G1 X78.413 Y17.654
G1 X78.654 Y17.413
G1 X78.879 Y17.155
G1 X79.085 Y16.883
G1 X79.272 Y16.598
G1 X79.439 Y16.3
G1 X79.586 Y15.992
G1 X79.711 Y15.674
G1 X79.815 Y15.349
G1 X79.895 Y15.017
G1 X79.953 Y14.681
G1 X79.988 Y14.341
G1 X80 Y14
G1 X79.988 Y13.659
G1 X79.953 Y13.319
G1 X79.895 Y12.983
G1 X79.815 Y12.651
G1 X79.711 Y12.326
G1 X79.586 Y12.008
G1 X79.439 Y11.7
G1 X79.272 Y11.402
G1 X79.085 Y11.117
G1 X78.879 Y10.845
G1 X78.654 Y10.587
G1 X78.413 Y10.346
G1 X78.155 Y10.121
G1 X77.883 Y9.915
G1 X77.598 Y9.728
G1 X77.3 Y9.561
G1 X76.992 Y9.414
G1 X76.674 Y9.289
G1 X76.349 Y9.185
G1 X76.017 Y9.105
G1 X75.681 Y9.047
G1 X75.341 Y9.012
G1 X75 Y9
G1 X45 Y9
G1 X44.651 Y9.012
G1 X44.304 Y9.049
G1 X43.96 Y9.109
G1 X43.622 Y9.194
G1 X43.29 Y9.302
G1 X42.966 Y9.432
G1 X42.653 Y9.585
G1 X42.35 Y9.76
G1 X42.061 Y9.955
G1 X41.786 Y10.17
G1 X41.527 Y10.403
G1 X41.284 Y10.654
G1 X41.06 Y10.922
G1 X40.855 Y11.204
G1 X40.67 Y11.5
G1 X40.506 Y11.808
G1 X40.364 Y12.127
G1 X40.245 Y12.455
G1 X40.149 Y12.79
G1 X40.076 Y13.132
G1 X40.027 Y13.477
G1 X40.003 Y13.826
M5
; contorno 3/7 foro 4 (profondita 1)
G0 X51.996 Y29.756
M3 S800
G4 P0.5
G1 X50.765 Y28.18 F3000
G1 X49.963 Y28.853
G1 X49.21 Y29.58
G1 X48.509 Y30.358
G1 X47.865 Y31.183
G1 X47.279 Y32.051
G1 X46.756 Y32.958
G1 X46.297 Y33.899
G1 X45.905 Y34.87
G1 X45.581 Y35.865
G1 X45.328 Y36.881
G1 X45.146 Y37.912
G1 X45.037 Y38.954
G1 X45 Y40
G1 X45.037 Y41.046
G1 X45.146 Y42.088
G1 X45.328 Y43.119
G1 X45.581 Y44.135
G1 X45.905 Y45.13
G1 X46.297 Y46.101
G1 X46.756 Y47.042
G1 X47.279 Y47.949
G1 X47.865 Y48.817
G1 X48.509 Y49.642
G1 X49.21 Y50.42
G1 X49.963 Y51.147
G1 X50.765 Y51.82
G1 X51.612 Y52.436
G1 X52.5 Y52.99
G1 X53.424 Y53.482
G1 X54.381 Y53.908
G1 X55.365 Y54.266
G1 X56.371 Y54.554
G1 X57.395 Y54.772
G1 X58.432 Y54.918
G1 X59.477 Y54.991
G1 X60.523 Y54.991
G1 X61.568 Y54.918
G1 X62.605 Y54.772
G1 X63.629 Y54.554
G1 X64.635 Y54.266
G1 X65.619 Y53.908
G1 X66.576 Y53.482
G1 X67.5 Y52.99
G1 X68.388 Y52.436
G1 X69.235 Y51.82
G1 X70.037 Y51.147
G1 X70.79 Y50.42
G1 X71.491 Y49.642
G1 X72.135 Y48.817
G1 X72.721 Y47.949
G1 X73.244 Y47.042
G1 X73.703 Y46.101
G1 X74.095 Y45.13
G1 X74.419 Y44.135
G1 X74.672 Y43.119
G1 X74.854 Y42.088
G1 X74.963 Y41.046
G1 X75 Y40
G1 X74.963 Y38.954
G1 X74.854 Y37.912
G1 X74.672 Y36.881
G1 X74.419 Y35.865
G1 X74.095 Y34.87
G1 X73.703 Y33.899
G1 X73.244 Y32.958
G1 X72.721 Y32.051
G1 X72.135 Y31.183
G1 X71.491 Y30.358
G1 X70.79 Y29.58
G1 X70.037 Y28.853
G1 X69.235 Y28.18
G1 X68.388 Y27.564
G1 X67.5 Y27.01
G1 X66.576 Y26.518
G1 X65.619 Y26.092
G1 X64.635 Y25.734
G1 X63.629 Y25.446
G1 X62.605 Y25.228
G1 X61.568 Y25.082
G1 X60.523 Y25.009
G1 X59.477 Y25.009
G1 X58.432 Y25.082
G1 X57.395 Y25.228
G1 X56.371 Y25.446
G1 X55.365 Y25.734
G1 X54.381 Y26.092
G1 X53.424 Y26.518
G1 X52.5 Y27.01
G1 X51.612 Y27.564
G1 X50.765 Y28.18
M5
; contorno 4/7 foro 5 (profondita 1)
G0 X16.439 Y63.611
M3 S800
G4 P0.5
G1 X17.877 Y62.221 F3000
G1 X17.677 Y62.027
G1 X17.463 Y61.848
G1 X17.237 Y61.684
G1 X17 Y61.536
G1 X16.753 Y61.405
G1 X16.498 Y61.291
G1 X16.236 Y61.196
G1 X15.968 Y61.119
G1 X15.695 Y61.061
G1 X15.418 Y61.022
G1 X15.14 Y61.002
G1 X14.86 Y61.002
G1 X14.582 Y61.022
G1 X14.305 Y61.061
G1 X14.032 Y61.119
G1 X13.764 Y61.196
G1 X13.502 Y61.291
G1 X13.247 Y61.405
G1 X13 Y61.536
G1 X12.763 Y61.684
G1 X12.537 Y61.848
G1 X12.323 Y62.027
G1 X12.123 Y62.221
G1 X11.936 Y62.429
G1 X11.764 Y62.649
G1 X11.608 Y62.88
G1 X11.468 Y63.122
G1 X11.346 Y63.373
G1 X11.241 Y63.632
G1 X11.155 Y63.897
G1 X11.087 Y64.168
G1 X11.039 Y64.443
G1 X11.01 Y64.721
G1 X11 Y65
G1 X11.01 Y65.279
G1 X11.039 Y65.557
G1 X11.087 Y65.832
G1 X11.155 Y66.103
G1 X11.241 Y66.368
G1 X11.346 Y66.627
G1 X11.468 Y66.878
G1 X11.608 Y67.12
G1 X11.764 Y67.351
G1 X11.936 Y67.571
G1 X12.123 Y67.779
G1 X12.323 Y67.973
G1 X12.537 Y68.152
G1 X12.763 Y68.316
G1 X13 Y68.464
G1 X13.247 Y68.595
G1 X13.502 Y68.709
G1 X13.764 Y68.804
G1 X14.032 Y68.881
G1 X14.305 Y68.939
G1 X14.582 Y68.978
G1 X14.86 Y68.998
G1 X15.14 Y68.998
G1 X15.418 Y68.978
G1 X15.695 Y68.939
G1 X15.968 Y68.881
G1 X16.236 Y68.804
G1 X16.498 Y68.709
G1 X16.753 Y68.595
G1 X17 Y68.464
G1 X17.237 Y68.316
G1 X17.463 Y68.152
G1 X17.677 Y67.973
G1 X17.877 Y67.779
G1 X18.064 Y67.571
G1 X18.236 Y67.351
G1 X18.392 Y67.12
G1 X18.532 Y66.878
G1 X18.654 Y66.627
G1 X18.759 Y66.368
G1 X18.845 Y66.103
G1 X18.913 Y65.832
G1 X18.961 Y65.557
G1 X18.99 Y65.279
G1 X19 Y65
G1 X18.99 Y64.721
G1 X18.961 Y64.443
G1 X18.913 Y64.168
G1 X18.845 Y63.897
G1 X18.759 Y63.632
G1 X18.654 Y63.373
G1 X18.532 Y63.122
G1 X18.392 Y62.88
G1 X18.236 Y62.649
G1 X18.064 Y62.429
G1 X17.877 Y62.221
M5
; contorno 5/7 foro 6 (profondita 1)
G0 X103 Y65
M3 S800
G4 P0.5
G1 X101 Y65 F3000
G1 X101.01 Y65.279
G1 X101.039 Y65.557
G1 X101.087 Y65.832
G1 X101.155 Y66.103
G1 X101.241 Y66.368
G1 X101.346 Y66.627
G1 X101.468 Y66.878
G1 X101.608 Y67.12
G1 X101.764 Y67.351
G1 X101.936 Y67.571
G1 X102.123 Y67.779
G1 X102.323 Y67.973
G1 X102.537 Y68.152
G1 X102.763 Y68.316
G1 X103 Y68.464
G1 X103.247 Y68.595
G1 X103.502 Y68.709
G1 X103.764 Y68.804
G1 X104.032 Y68.881
G1 X104.305 Y68.939
G1 X104.582 Y68.978
G1 X104.86 Y68.998
G1 X105.14 Y68.998
G1 X105.418 Y68.978
G1 X105.695 Y68.939
G1 X105.968 Y68.881
G1 X106.236 Y68.804
G1 X106.498 Y68.709
G1 X106.753 Y68.595
G1 X107 Y68.464
G1 X107.237 Y68.316
G1 X107.463 Y68.152
G1 X107.677 Y67.973
G1 X107.877 Y67.779
G1 X108.064 Y67.571
G1 X108.236 Y67.351
G1 X108.392 Y67.12
G1 X108.532 Y66.878
G1 X108.654 Y66.627
G1 X108.759 Y66.368
G1 X108.845 Y66.103
G1 X108.913 Y65.832
G1 X108.961 Y65.557
G1 X108.99 Y65.279
G1 X109 Y65
G1 X108.99 Y64.721
G1 X108.961 Y64.443
G1 X108.913 Y64.168
G1 X108.845 Y63.897
G1 X108.759 Y63.632
G1 X108.654 Y63.373
G1 X108.532 Y63.122
G1 X108.392 Y62.88
G1 X108.236 Y62.649
G1 X108.064 Y62.429
G1 X107.877 Y62.221
G1 X107.677 Y62.027
G1 X107.463 Y61.848
G1 X107.237 Y61.684
G1 X107 Y61.536
G1 X106.753 Y61.405
G1 X106.498 Y61.291
G1 X106.236 Y61.196
G1 X105.968 Y61.119
G1 X105.695 Y61.061
G1 X105.418 Y61.022
G1 X105.14 Y61.002
G1 X104.86 Y61.002
G1 X104.582 Y61.022
G1 X104.305 Y61.061
G1 X104.032 Y61.119
G1 X103.764 Y61.196
G1 X103.502 Y61.291
G1 X103.247 Y61.405
G1 X103 Y61.536
G1 X102.763 Y61.684
G1 X102.537 Y61.848
G1 X102.323 Y62.027
G1 X102.123 Y62.221
G1 X101.936 Y62.429
G1 X101.764 Y62.649
G1 X101.608 Y62.88
G1 X101.468 Y63.122
G1 X101.346 Y63.373
G1 X101.241 Y63.632
G1 X101.155 Y63.897
G1 X101.087 Y64.168
G1 X101.039 Y64.443
G1 X101.01 Y64.721
G1 X101 Y65
M5
; contorno 6/7 foro 3 (profondita 1)
G0 X104.791 Y16.989
M3 S800
G4 P0.5
G1 X104.582 Y18.978 F3000
G1 X104.86 Y18.998
G1 X105.14 Y18.998
G1 X105.418 Y18.978
G1 X105.695 Y18.939
G1 X105.968 Y18.881
G1 X106.236 Y18.804
G1 X106.498 Y18.709
G1 X106.753 Y18.595
G1 X107 Y18.464
G1 X107.237 Y18.316
G1 X107.463 Y18.152
G1 X107.677 Y17.973
G1 X107.877 Y17.779
G1 X108.064 Y17.571
G1 X108.236 Y17.351
G1 X108.392 Y17.12
G1 X108.532 Y16.878
G1 X108.654 Y16.627
G1 X108.759 Y16.368
G1 X108.845 Y16.103
G1 X108.913 Y15.832
G1 X108.961 Y15.557
G1 X108.99 Y15.279
G1 X109 Y15
G1 X108.99 Y14.721
G1 X108.961 Y14.443
G1 X108.913 Y14.168
G1 X108.845 Y13.897
G1 X108.759 Y13.632
G1 X108.654 Y13.373
G1 X108.532 Y13.122
G1 X108.392 Y12.88
G1 X108.236 Y12.649
G1 X108.064 Y12.429
G1 X107.877 Y12.221
G1 X107.677 Y12.027
G1 X107.463 Y11.848
G1 X107.237 Y11.684
G1 X107 Y11.536
G1 X106.753 Y11.405
G1 X106.498 Y11.291
G1 X106.236 Y11.196
G1 X105.968 Y11.119
G1 X105.695 Y11.061
G1 X105.418 Y11.022
G1 X105.14 Y11.002
G1 X104.86 Y11.002
G1 X104.582 Y11.022
G1 X104.305 Y11.061
G1 X104.032 Y11.119
G1 X103.764 Y11.196
G1 X103.502 Y11.291
G1 X103.247 Y11.405
G1 X103 Y11.536
G1 X102.763 Y11.684
G1 X102.537 Y11.848
G1 X102.323 Y12.027
G1 X102.123 Y12.221
G1 X101.936 Y12.429
G1 X101.764 Y12.649
G1 X101.608 Y12.88
G1 X101.468 Y13.122
G1 X101.346 Y13.373
G1 X101.241 Y13.632
G1 X101.155 Y13.897
G1 X101.087 Y14.168
G1 X101.039 Y14.443
G1 X101.01 Y14.721
G1 X101 Y15
G1 X101.01 Y15.279
G1 X101.039 Y15.557
G1 X101.087 Y15.832
G1 X101.155 Y16.103
G1 X101.241 Y16.368
G1 X101.346 Y16.627
G1 X101.468 Y16.878
G1 X101.608 Y17.12
G1 X101.764 Y17.351
G1 X101.936 Y17.571
G1 X102.123 Y17.779
G1 X102.323 Y17.973
G1 X102.537 Y18.152
G1 X102.763 Y18.316
G1 X103 Y18.464
G1 X103.247 Y18.595
G1 X103.502 Y18.709
G1 X103.764 Y18.804
G1 X104.032 Y18.881
G1 X104.305 Y18.939
G1 X104.582 Y18.978
M5
; contorno 7/7 perimetro (profondita 0)
G0 X121.664 Y-1.109
M3 S800
G4 P0.5
G1 X120 Y0 F3000
G1 X120 Y80
G1 X0 Y80
G1 X0 Y0
G1 X120 Y0
M5
M5
G17 G90
M2
